; Generated with MatterSlice 2.22.04
; filamentDiameter = 1.75
; extrusionWidth = 0.4
; firstLayerExtrusionWidth = 0.5
; layerThickness = 0.2
; firstLayerThickness = 0.25
; automatic settings before start_gcode
G21 ; set units to millimeters
M107 ; fan off
M140 S80 ; start heating the bed
M104 T0 S200 ; start heating T0
M190 S80 ; wait for bed temperature to be reached
T0 ; set the active extruder to 0
; settings from start_gcode
M75
G28 ; home all axes
M420 S1; enable the mesh
G29 L0; load the mesh
G29 A; enable UBL
G29 J; tilt mesh
G1 Z15 F6000
M109 S200
M117 Printing
; automatic settings after start_gcode
T0 ; set the active extruder to 0
G90 ; use absolute coordinates
G92 E0 ; reset the expected extruder position
M82 ; use absolute distance for extrusion
; Layer count: 210
; Layer Change GCode
; LAYER:0
; LAYER_HEIGHT:0.25
; TYPE:FILL
M400
M107
G1 X104.7 Y90.88 Z0.25 F12000
G1 X137.17 Y91.15
G1 X164.67 Y92.09
; TYPE:SKIRT
G1 F2400
G1 X168.97 Y104.5 E0.683 F1200
G1 X170.57 Y110.77 E1.019
G1 X171.9 Y116.53 E1.326
G1 X172.85 Y123.18 E1.675
G1 X173.54 Y129.23 E1.992
G1 X173.78 Y133.97 E2.238
G1 Y139.07 E2.503
G1 X173.64 Y142.19 E2.666
G1 X172.54 Y146.69 E2.907
G1 X169.05 Y151.65 E3.222
G1 X163.81 Y154.97 E3.544
G1 X159.35 Y155.8 E3.78
G1 X110.65 Y155.82 E6.311
G1 X92.86 Y128.64 E7.999
G1 X92.74 Y98.41 E9.57
G1 X97.25 Y88.36 E10.142
G1 X99.27 Y85.16 E10.339
G1 X102.97 Y81.9 E10.596
G1 X107.4 Y79.85 E10.849
G1 X111.18 Y79.28 E11.048
G1 X143.5 Y79.17 E12.727
G1 X164.67 Y92.09 E14.016
G1 X157.64 Y97.75 F12000
G1 X160.82 Y106.95 E14.522 F1200
G1 X162.3 Y112.77 E14.834
G1 X163.54 Y118.1 E15.118
G1 X163.71 Y119.39 E15.186
G1 X164.42 Y124.27 E15.442
G1 X165.07 Y129.92 E15.738
G1 X165.28 Y134.19 E15.96
G1 Y138.88 E16.203
G1 X165.19 Y140.97 E16.313
G1 X164.66 Y143.11 E16.427
G1 X163.07 Y145.38 E16.571
G1 X160.64 Y146.91 E16.72
G1 X158.57 Y147.3 E16.83
G1 X115.24 Y147.32 E19.081
G1 X101.35 Y126.09 E20.4
G1 X101.24 Y100.22 E21.745
G1 X104.76 Y92.39 E22.191
G1 X105.81 Y90.72 E22.293
G1 X107.66 Y89.1 E22.421
G1 X109.86 Y88.08 E22.547
G1 X111.83 Y87.78 E22.651
G1 X141.13 Y87.68 E24.173
G1 X157.64 Y97.75 E25.178
G1 X157.22 Y98.09 F12000
G1 X160.34 Y107.09 E25.673 F1200
G1 X161.82 Y112.89 E25.984
G1 X163.04 Y118.19 E26.267
G1 X163.22 Y119.47 E26.334
G1 X163.93 Y124.33 E26.589
G1 X164.57 Y129.96 E26.884
G1 X164.78 Y134.2 E27.104
G1 Y138.86 E27.347
G1 X164.69 Y140.9 E27.453
G1 X164.2 Y142.9 E27.56
G1 X162.72 Y145.01 E27.694
G1 X160.46 Y146.44 E27.833
G1 X158.52 Y146.8 E27.935
G1 X115.51 Y146.82 E30.17
G1 X101.85 Y125.94 E31.467
G1 X101.74 Y100.32 E32.798
G1 X105.2 Y92.62 E33.237
G1 X106.19 Y91.05 E33.333
G1 X107.93 Y89.52 E33.454
G1 X110.01 Y88.56 E33.573
G1 X111.87 Y88.28 E33.671
G1 X140.99 Y88.18 E35.184
G1 X157.22 Y98.09 E36.172
G1 X156.81 Y98.42 F12000
G1 X159.86 Y107.24 E36.657 F1200
G1 X161.33 Y113.01 E36.967
G1 X162.55 Y118.28 E37.248
G1 X162.72 Y119.54 E37.314
G1 X163.43 Y124.39 E37.569
G1 X164.07 Y130.01 E37.862
G1 X164.28 Y134.21 E38.081
G1 Y138.85 E38.322
G1 X164.19 Y140.83 E38.425
G1 X163.74 Y142.69 E38.525
G1 X162.36 Y144.64 E38.649
G1 X160.27 Y145.97 E38.777
G1 X158.48 Y146.3 E38.872
G1 X115.78 Y146.32 E41.091
G1 X102.35 Y125.79 E42.366
G1 X102.25 Y100.43 E43.684
G1 X105.65 Y92.86 E44.115
G1 X106.58 Y91.38 E44.206
G1 X108.21 Y89.94 E44.319
G1 X110.15 Y89.04 E44.43
G1 X111.91 Y88.78 E44.523
G1 X140.85 Y88.68 E46.027
G1 X156.81 Y98.42 E46.998
G1 X156.4 Y98.75 F12000
G1 X159.38 Y107.38 E47.473 F1200
G1 X160.85 Y113.13 E47.781
G1 X162.06 Y118.37 E48.06
G1 X162.23 Y119.66 E48.128
G1 X162.93 Y124.46 E48.38
G1 X163.57 Y130.05 E48.673
G1 X163.78 Y134.23 E48.89
G1 Y138.84 E49.13
G1 X163.7 Y140.76 E49.23
G1 X163.27 Y142.48 E49.322
G1 X162.01 Y144.27 E49.436
G1 X160.09 Y145.49 E49.554
G1 X158.43 Y145.8 E49.642
G1 X116.05 Y145.82 E51.844
G1 X102.85 Y125.64 E53.097
G1 X102.75 Y100.54 E54.402
G1 X106.09 Y93.1 E54.826
G1 X106.96 Y91.71 E54.911
G1 X108.49 Y90.37 E55.017
G1 X110.3 Y89.53 E55.12
G1 X111.95 Y89.28 E55.207
G1 X140.71 Y89.18 E56.702
G1 X156.4 Y98.75 E57.657
G1 X155.98 Y99.09 F12000
G1 X158.91 Y107.52 E58.121 F1200
G1 X160.36 Y113.25 E58.428
G1 X161.57 Y118.46 E58.706
G1 X161.73 Y119.68 E58.77
G1 X162.44 Y124.52 E59.024
G1 X163.07 Y130.09 E59.315
G1 X163.28 Y134.24 E59.531
G1 Y138.83 E59.77
G1 X163.2 Y140.69 E59.866
G1 X162.81 Y142.27 E59.951
G1 X161.66 Y143.9 E60.055
G1 X159.9 Y145.02 E60.163
G1 X158.38 Y145.3 E60.243
G1 X116.32 Y145.32 E62.429
G1 X103.34 Y125.49 E63.66
G1 X103.25 Y100.64 E64.952
G1 X106.53 Y93.33 E65.368
G1 X107.35 Y92.03 E65.448
G1 X108.76 Y90.79 E65.546
G1 X110.44 Y90.01 E65.642
G1 X111.99 Y89.78 E65.724
G1 X140.57 Y89.68 E67.209
G1 X155.98 Y99.09 E68.147
G1 X155.57 Y99.42 F12000
G1 X158.43 Y107.67 E68.601 F1200
G1 X159.87 Y113.36 E68.906
G1 X161.07 Y118.55 E69.183
G1 X161.24 Y119.76 E69.246
G1 X161.94 Y124.59 E69.5
G1 X162.57 Y130.13 E69.79
G1 X162.78 Y134.25 E70.004
G1 Y138.82 E70.242
G1 X162.7 Y140.61 E70.335
G1 X162.35 Y142.06 E70.412
G1 X161.31 Y143.53 E70.506
G1 X159.71 Y144.54 E70.604
G1 X158.34 Y144.8 E70.677
G1 X116.59 Y144.82 E72.846
G1 X103.84 Y125.34 E74.056
G1 X103.75 Y100.75 E75.334
G1 X106.97 Y93.57 E75.743
G1 X107.73 Y92.36 E75.817
G1 X109.04 Y91.21 E75.908
G1 X110.59 Y90.5 E75.996
G1 X112.03 Y90.28 E76.072
G1 X140.43 Y90.18 E77.548
G1 X155.57 Y99.42 E78.47
G1 X155.15 Y99.75 F12000
G1 X157.95 Y107.81 E78.913 F1200
G1 X159.39 Y113.48 E79.217
G1 X160.58 Y118.64 E79.492
G1 X160.74 Y119.83 E79.554
G1 X161.45 Y124.65 E79.808
G1 X162.07 Y130.17 E80.096
G1 X162.28 Y134.26 E80.31
G1 Y138.81 E80.546
G1 X162.2 Y140.54 E80.636
G1 X161.88 Y141.84 E80.706
G1 X160.96 Y143.16 E80.789
G1 X159.53 Y144.07 E80.877
G1 X158.29 Y144.3 E80.943
G1 X116.86 Y144.32 E83.096
G1 X104.34 Y125.19 E84.283
G1 X104.25 Y100.86 E85.548
G1 X107.41 Y93.81 E85.95
G1 X108.12 Y92.69 E86.018
G1 X109.31 Y91.64 E86.101
G1 X110.73 Y90.98 E86.183
G1 X112.07 Y90.78 E86.253
G1 X140.29 Y90.68 E87.719
G1 X155.15 Y99.75 E88.624
G1 X154.74 Y100.09 F12000
G1 X157.47 Y107.95 E89.057 F1200
G1 X158.9 Y113.6 E89.36
G1 X160.09 Y118.73 E89.633
G1 X160.25 Y119.9 E89.695
G1 X160.95 Y124.72 E89.948
G1 X161.58 Y130.21 E90.235
G1 X161.78 Y134.28 E90.447
G1 Y138.8 E90.682
G1 X161.71 Y140.47 E90.769
G1 X161.42 Y141.63 E90.831
G1 X160.61 Y142.79 E90.905
G1 X159.34 Y143.6 E90.983
G1 X158.25 Y143.8 E91.04
G1 X117.13 Y143.82 E93.177
G1 X104.84 Y125.04 E94.343
G1 X104.75 Y100.96 E95.595
G1 X107.85 Y94.04 E95.989
G1 X108.5 Y93.02 E96.052
G1 X109.59 Y92.06 E96.127
G1 X110.88 Y91.46 E96.201
G1 X112.1 Y91.28 E96.265
G1 X140.15 Y91.18 E97.723
G1 X154.74 Y100.09 E98.611
G1 X154.33 Y100.42 F12000
G1 X156.99 Y108.1 E99.034 F1200
G1 X158.42 Y113.72 E99.335
G1 X159.6 Y118.82 E99.607
G1 X159.75 Y119.97 E99.667
G1 X160.46 Y124.78 E99.92
G1 X161.08 Y130.25 E100.206
G1 X161.28 Y134.29 E100.416
G1 Y138.78 E100.65
G1 X161.21 Y140.4 E100.734
G1 X160.96 Y141.42 E100.789
G1 X160.25 Y142.43 E100.852
G1 X159.16 Y143.12 E100.92
G1 X158.2 Y143.3 E100.97
G1 X117.4 Y143.32 E103.091
G1 X105.34 Y124.89 E104.235
G1 X105.25 Y101.07 E105.473
G1 X108.3 Y94.28 E105.86
G1 X108.89 Y93.34 E105.917
G1 X109.86 Y92.48 E105.985
G1 X111.02 Y91.95 E106.051
G1 X112.14 Y91.78 E106.11
G1 X140.01 Y91.68 E107.558
G1 X154.33 Y100.42 E108.43
G1 X153.91 Y100.75 F12000
G1 X156.51 Y108.24 E108.842 F1200
G1 X157.93 Y113.84 E109.142
G1 X159.1 Y118.91 E109.412
G1 X159.26 Y120.04 E109.472
G1 X159.96 Y124.84 E109.724
G1 X160.58 Y130.29 E110.009
G1 X160.78 Y134.3 E110.218
G1 Y138.77 E110.45
G1 X160.71 Y140.33 E110.531
G1 X160.5 Y141.21 E110.578
G1 X159.9 Y142.06 E110.632
G1 X158.97 Y142.65 E110.689
G1 X158.15 Y142.8 E110.732
G1 X117.67 Y142.82 E112.836
G1 X105.84 Y124.74 E113.959
G1 X105.75 Y101.17 E115.184
G1 X108.74 Y94.52 E115.563
G1 X109.27 Y93.67 E115.615
G1 X110.14 Y92.91 E115.675
G1 X111.17 Y92.43 E115.734
G1 X112.18 Y92.28 E115.787
G1 X139.87 Y92.18 E117.226
G1 X153.91 Y100.75 E118.081
G1 X153.5 Y101.09 F12000
G1 X156.03 Y108.39 E118.483 F1200
G1 X157.45 Y113.95 E118.781
G1 X158.61 Y119 E119.05
G1 X158.77 Y120.13 E119.109
G1 X159.46 Y124.91 E119.36
G1 X160.08 Y130.33 E119.644
G1 X160.28 Y134.32 E119.851
G1 Y138.76 E120.082
G1 X160.22 Y140.26 E120.16
G1 X160.03 Y141 E120.2
G1 X159.55 Y141.69 E120.244
G1 X158.78 Y142.17 E120.291
G1 X158.11 Y142.3 E120.327
G1 X117.95 Y142.32 E122.414
G1 X106.34 Y124.59 E123.515
G1 X106.25 Y101.28 E124.726
G1 X109.18 Y94.75 E125.098
G1 X109.66 Y94 E125.144
G1 X110.42 Y93.33 E125.197
G1 X111.31 Y92.91 E125.249
G1 X112.22 Y92.78 E125.296
G1 X139.73 Y92.68 E126.726
G1 X153.5 Y101.09 E127.564
G1 X153.09 Y101.42 F12000
G1 X155.55 Y108.53 E127.955 F1200
G1 X156.96 Y114.07 E128.252
G1 X158.12 Y119.09 E128.52
G1 X158.27 Y120.19 E128.578
G1 X158.97 Y124.97 E128.829
G1 X159.58 Y130.37 E129.111
G1 X159.78 Y134.33 E129.317
G1 Y138.75 E129.547
G1 X159.72 Y140.18 E129.621
G1 X159.57 Y140.79 E129.654
G1 X159.2 Y141.32 E129.688
G1 X158.6 Y141.7 E129.725
G1 X158.06 Y141.8 E129.753
G1 X118.22 Y141.82 E131.824
G1 X106.84 Y124.44 E132.903
G1 X106.75 Y101.39 E134.101
G1 X109.62 Y94.99 E134.465
G1 X110.04 Y94.33 E134.506
G1 X110.69 Y93.75 E134.551
G1 X111.46 Y93.4 E134.595
G1 X112.26 Y93.28 E134.637
G1 X139.59 Y93.18 E136.058
G1 X153.09 Y101.42 E136.879
G1 X152.67 Y101.75 F12000
G1 X155.07 Y108.67 E137.26 F1200
G1 X156.47 Y114.19 E137.556
G1 X157.63 Y119.18 E137.822
G1 X157.78 Y120.26 E137.879
G1 X157.77 E137.879
G1 X158.47 Y125.04 E138.13
G1 X159.08 Y130.42 E138.411
G1 X159.28 Y134.34 E138.615
G1 Y138.74 E138.844
G1 X159.22 Y140.11 E138.915
G1 X159.11 Y140.58 E138.94
G1 X158.85 Y140.95 E138.964
G1 X158.41 Y141.23 E138.99
G1 X158.02 Y141.3 E139.011
G1 X118.49 Y141.32 E141.066
G1 X107.34 Y124.29 E142.123
G1 X107.25 Y101.49 E143.308
G1 X110.06 Y95.23 E143.665
G1 X110.43 Y94.65 E143.7
G1 X110.97 Y94.18 E143.738
G1 X111.6 Y93.88 E143.774
G1 X112.3 Y93.78 E143.811
G1 X139.45 Y93.68 E145.222
G1 X152.67 Y101.75 E146.027
G1 E142.027 F2400
G1 X151.55 Y102.69 F12000
G1 X153.73 Y111.01
G1 X157.73 Y139.8
; TYPE:WALL-INNER
G1 E146.027 F2400
G1 X119.3 Y139.82 E148.024 F1200
G1 X108.84 Y123.84 E149.016
G1 X108.75 Y101.81 E150.161
G1 X111.39 Y95.94 E150.496
G1 X111.58 Y95.64 E150.515
G1 X111.79 Y95.45 E150.529
G1 X112.04 Y95.33 E150.544
G1 X112.41 Y95.28 E150.563
G1 X139.03 Y95.19 E151.946
G1 X151.43 Y102.75 E152.701
G1 X153.63 Y109.11 E153.051
G1 X155.01 Y114.53 E153.342
G1 X156.15 Y119.45 E153.604
G1 X156.29 Y120.47 E153.658
G1 X156.98 Y125.23 E153.908
G1 X157.59 Y130.54 E154.186
G1 X157.78 Y134.37 E154.385
G1 Y138.7 E154.61
G1 X157.75 Y139.45 E154.649
G1 X157.73 Y139.8
G1 X158.72 Y140.04 F12000
G1 X158.64 Y140.37
; TYPE:WALL-OUTER
G1 X158.5 Y140.58 E154.662 F1200
G1 X158.23 Y140.75 E154.679
G1 X157.97 Y140.8 E154.692
G1 X118.76 Y140.82 E156.73
G1 X107.84 Y124.14 E157.766
G1 X107.75 Y101.6 E158.937
G1 X110.5 Y95.47 E159.287
G1 X110.81 Y94.98 E159.316
G1 X111.24 Y94.6 E159.346
G1 X111.75 Y94.37 E159.375
G1 X112.34 Y94.28 E159.406
G1 X139.31 Y94.18 E160.808
G1 X152.26 Y102.09 E161.596
G1 X154.59 Y108.82 E161.967
G1 X155.99 Y114.31 E162.261
G1 X157.14 Y119.27 E162.526
G1 X157.28 Y120.33 E162.581
G1 X157.98 Y125.1 E162.832
G1 X158.58 Y130.45 E163.112
G1 X158.78 Y134.36 E163.315
G1 Y138.72 E163.542
G1 X158.72 Y140.03 E163.61
G1 X158.64 Y140.37
G1 X158.5 Y140.58
G1 X158.23 Y140.75
G1 X157.97 Y140.8
G1 X155.8
G1 X158.23 Y139.97 F12000
; TYPE:WALL-INNER
G1 X158.18 Y140.16 E163.62 F1200
G1 X158.14 Y140.21 E163.623
G1 X158.04 Y140.28 E163.63
G1 X157.93 Y140.3 E163.636
G1 X119.03 Y140.32 E165.657
G1 X108.34 Y123.99 E166.671
G1 X108.25 Y101.7 E167.83
G1 X110.94 Y95.71 E168.171
G1 X111.2 Y95.31 E168.196
G1 X111.52 Y95.02 E168.218
G1 X111.89 Y94.85 E168.24
G1 X112.38 Y94.78 E168.265
G1 X139.17 Y94.69 E169.657
G1 X151.84 Y102.42 E170.429
G1 X154.11 Y108.96 E170.789
G1 X155.5 Y114.42 E171.081
G1 X156.64 Y119.36 E171.345
G1 X156.78 Y120.4 E171.4
G1 X157.48 Y125.15 E171.649
G1 X158.09 Y130.5 E171.929
G1 X158.28 Y134.37 E172.13
G1 Y138.72 E172.356
G1 X158.24 Y139.62 E172.403
G1 X158.23 Y139.97
G1 E168.403 F2400
G1 X157.67 Y139.6 F12000
G1 X145.99 Y123.13
G1 E172.403 F2400
G1 X145.49 Y123.43 E172.433 F1200
G1 X144.95 Y123.63 E172.464
G1 X144.37 Y123.72 E172.494
G1 X143.78 Y123.7 E172.525
G1 X143.2 Y123.56 E172.556
G1 X142.65 Y123.3 E172.587
G1 X142.21 Y122.98 E172.616
G1 X141.79 Y122.52 E172.648
G1 X141.48 Y122.02 E172.678
G1 X141.28 Y121.48 E172.709
G1 X141.19 Y120.9 E172.739
G1 X141.21 Y120.32 E172.769
G1 X141.34 Y119.77 E172.798
G1 X141.61 Y119.18 E172.832
G1 X141.96 Y118.71 E172.862
G1 X142.36 Y118.34 E172.891
G1 X142.88 Y118.02 E172.923
G1 X143.43 Y117.81 E172.953
G1 X144.01 Y117.72 E172.984
G1 X144.59 Y117.74 E173.014
G1 X145.14 Y117.87 E173.043
G1 X145.72 Y118.14 E173.077
G1 X146.17 Y118.46 E173.105
G1 X146.59 Y118.92 E173.138
G1 X146.9 Y119.42 E173.168
G1 X147.1 Y119.96 E173.198
G1 X147.19 Y120.54 E173.229
G1 X147.17 Y121.12 E173.259
G1 X147.04 Y121.67 E173.288
G1 X146.77 Y122.26 E173.322
G1 X146.42 Y122.73 E173.352
G1 X146.25 Y122.89 E173.365
G1 X145.99 Y123.13
G1 X146.29 Y123.53 F12000
G1 X145.71 Y123.88 E173.4 F1200
G1 X145.07 Y124.12 E173.435
G1 X144.4 Y124.22 E173.471
G1 X143.71 Y124.2 E173.506
G1 X143.03 Y124.03 E173.543
G1 X142.4 Y123.74 E173.579
G1 X141.87 Y123.36 E173.613
G1 X141.38 Y122.83 E173.65
G1 X141.03 Y122.24 E173.686
G1 X140.97 Y122.07 E173.695
G1 X140.85 Y122.48 E173.718
G1 X140.31 Y123.66 E173.785
G1 X139.66 Y124.75 E173.851
G1 X138.91 Y125.77 E173.917
G1 X138.06 Y126.71 E173.982
G1 X137.12 Y127.55 E174.048
G1 X136.13 Y128.27 E174.112
G1 X135.05 Y128.9 E174.177
G1 X133.85 Y129.44 E174.245
G1 X131.64 Y130.06 E174.364
G1 X129.4 Y130.26 E174.481
G1 X127.16 Y130.05 E174.598
G1 X124.95 Y129.41 E174.718
G1 X123.79 Y128.88 E174.784
G1 X123.07 Y128.46 E174.827
G1 X123.19 Y129 E174.856
G1 X123.21 Y129.65 E174.89
G1 X123.09 Y130.36 E174.927
G1 X122.85 Y130.99 E174.962
G1 X122.49 Y131.57 E174.998
G1 X122.04 Y132.05 E175.032
G1 X121.43 Y132.49 E175.071
G1 X120.83 Y132.75 E175.105
G1 X120.14 Y132.91 E175.142
G1 X119.49 Y132.93 E175.175
G1 X118.78 Y132.81 E175.213
G1 X118.15 Y132.57 E175.248
G1 X117.57 Y132.2 E175.284
G1 X117.08 Y131.75 E175.318
G1 X116.65 Y131.14 E175.357
G1 X116.37 Y130.51 E175.393
G1 X116.23 Y129.86 E175.428
G1 X116.21 Y129.21 E175.461
G1 X116.33 Y128.5 E175.499
G1 X116.57 Y127.86 E175.534
G1 X116.94 Y127.28 E175.57
G1 X117.42 Y126.77 E175.606
G1 X118.02 Y126.35 E175.644
G1 X118.66 Y126.09 E175.681
G1 X119.25 Y125.95 E175.712
G1 X119.97 Y125.93 E175.749
G1 X120.13 Y125.96 E175.758
G1 X119.9 Y125.7 E175.776
G1 X119.18 Y124.71 E175.84
G1 X118.54 Y123.61 E175.906
G1 X118.01 Y122.44 E175.973
G1 X117.38 Y120.2 E176.093
G1 X117.18 Y117.98 E176.21
G1 X117.39 Y115.75 E176.326
G1 X118.03 Y113.52 E176.446
G1 X118.57 Y112.35 E176.513
G1 X119.21 Y111.27 E176.578
G1 X119.95 Y110.25 E176.644
G1 X120.78 Y109.34 E176.708
G1 X121.73 Y108.48 E176.774
G1 X122.76 Y107.74 E176.84
G1 X123.57 Y107.27 E176.889
G1 X123.04 Y107.1 E176.918
G1 X122.47 Y106.8 E176.951
G1 X121.92 Y106.34 E176.989
G1 X121.48 Y105.81 E177.024
G1 X121.17 Y105.21 E177.06
G1 X120.97 Y104.58 E177.094
G1 X120.9 Y103.84 E177.133
G1 X120.97 Y103.18 E177.167
G1 X121.18 Y102.5 E177.204
G1 X121.51 Y101.9 E177.239
G1 X121.95 Y101.38 E177.275
G1 X122.48 Y100.95 E177.31
G1 X123.08 Y100.63 E177.346
G1 X123.71 Y100.44 E177.38
G1 X124.46 Y100.37 E177.419
G1 X125.13 Y100.45 E177.454
G1 X125.75 Y100.63 E177.488
G1 X126.39 Y100.98 E177.525
G1 X126.91 Y101.41 E177.561
G1 X127.34 Y101.94 E177.596
G1 X127.66 Y102.55 E177.632
G1 X127.86 Y103.22 E177.668
G1 X127.92 Y103.93 E177.705
G1 X127.84 Y104.61 E177.741
G1 X127.63 Y105.26 E177.776
G1 X127.31 Y105.85 E177.811
G1 X127.22 Y105.95 E177.818
G1 X129.48 Y105.75 E177.936
G1 X131.7 Y105.96 E178.051
G1 X133.95 Y106.62 E178.173
G1 X135.11 Y107.15 E178.24
G1 X136.16 Y107.76 E178.303
G1 X137.18 Y108.51 E178.369
G1 X138.12 Y109.37 E178.435
G1 X138.97 Y110.32 E178.501
G1 X139.72 Y111.35 E178.567
G1 X140.33 Y112.4 E178.63
G1 X140.86 Y113.57 E178.697
G1 X141.5 Y115.84 E178.819
G1 X141.69 Y118.07 E178.936
G1 X141.67 Y118.3 E178.948
G1 X142.05 Y117.94 E178.975
G1 X142.66 Y117.56 E179.013
G1 X143.31 Y117.33 E179.048
G1 X143.98 Y117.22 E179.084
G1 X144.65 Y117.25 E179.119
G1 X145.3 Y117.39 E179.153
G1 X145.98 Y117.7 E179.192
G1 X146.51 Y118.09 E179.226
G1 X146.99 Y118.61 E179.263
G1 X147.35 Y119.2 E179.299
G1 X147.58 Y119.84 E179.334
G1 X147.69 Y120.51 E179.369
G1 X147.67 Y121.19 E179.405
G1 X147.52 Y121.84 E179.439
G1 X147.2 Y122.52 E179.478
G1 X146.79 Y123.07 E179.514
G1 X146.55 Y123.29 E179.531
G1 X146.29 Y123.53
G1 X145.39 Y122.32 F12000
; TYPE:WALL-OUTER
G1 X145.06 Y122.52 E179.551 F1200
G1 X144.69 Y122.66 E179.571
G1 X144.31 Y122.72 E179.592
G1 X143.92 Y122.7 E179.612
G1 X143.53 Y122.61 E179.633
G1 X143.16 Y122.44 E179.654
G1 X142.87 Y122.23 E179.672
G1 X142.59 Y121.92 E179.694
G1 X142.39 Y121.59 E179.714
G1 X142.25 Y121.22 E179.734
G1 X142.19 Y120.84 E179.755
G1 X142.21 Y120.45 E179.775
G1 X142.29 Y120.09 E179.794
G1 X142.47 Y119.69 E179.817
G1 X142.7 Y119.38 E179.837
G1 X142.97 Y119.14 E179.856
G1 X143.32 Y118.92 E179.877
G1 X143.69 Y118.79 E179.897
G1 X144.07 Y118.72 E179.918
G1 X144.46 Y118.74 E179.938
G1 X144.82 Y118.82 E179.957
G1 X145.22 Y119 E179.98
G1 X145.51 Y119.21 E179.998
G1 X145.79 Y119.52 E180.02
G1 X145.99 Y119.85 E180.04
G1 X146.12 Y120.22 E180.06
G1 X146.19 Y120.6 E180.081
G1 X146.17 Y120.99 E180.101
G1 X146.09 Y121.35 E180.12
G1 X145.9 Y121.75 E180.143
G1 X145.67 Y122.06 E180.163
G1 X145.39 Y122.32
G1 X145.06 Y122.52
G1 X144.69 Y122.66
G1 X144.31 Y122.72
G1 X143.92 Y122.7
G1 X143.53 Y122.61
G1 X143.16 Y122.44
G1 X142.87 Y122.23
G1 X142.68 Y122.02
G1 X145.69 Y122.73 F12000
; TYPE:WALL-INNER
G1 X145.27 Y122.98 E180.188 F1200
G1 X144.82 Y123.14 E180.213
G1 X144.34 Y123.22 E180.239
G1 X143.85 Y123.2 E180.264
G1 X143.36 Y123.08 E180.29
G1 X142.91 Y122.87 E180.316
G1 X142.54 Y122.6 E180.34
G1 X142.19 Y122.22 E180.367
G1 X141.93 Y121.81 E180.392
G1 X141.77 Y121.35 E180.417
G1 X141.69 Y120.87 E180.443
G1 X141.71 Y120.39 E180.468
G1 X141.81 Y119.93 E180.492
G1 X142.04 Y119.44 E180.52
G1 X142.33 Y119.05 E180.546
G1 X142.66 Y118.74 E180.569
G1 X143.1 Y118.47 E180.596
G1 X143.56 Y118.3 E180.621
G1 X144.04 Y118.22 E180.647
G1 X144.52 Y118.24 E180.672
G1 X144.98 Y118.34 E180.696
G1 X145.47 Y118.57 E180.724
G1 X145.84 Y118.84 E180.748
G1 X146.19 Y119.22 E180.775
G1 X146.44 Y119.64 E180.8
G1 X146.61 Y120.09 E180.825
G1 X146.69 Y120.57 E180.85
G1 X146.67 Y121.06 E180.876
G1 X146.57 Y121.51 E180.9
G1 X146.34 Y122 E180.928
G1 X146.05 Y122.4 E180.954
G1 X145.95 Y122.49 E180.961
G1 X145.69 Y122.73
G1 X144.17 Y123.54 F12000
G1 X140.38 Y122.3
G1 X139.86 Y123.43 E181.025 F1200
G1 X139.24 Y124.48 E181.088
G1 X138.53 Y125.45 E181.151
G1 X137.71 Y126.35 E181.214
G1 X136.8 Y127.16 E181.277
G1 X135.86 Y127.85 E181.338
G1 X134.82 Y128.46 E181.401
G1 X133.68 Y128.96 E181.466
G1 X131.55 Y129.57 E181.581
G1 X129.4 Y129.76 E181.693
G1 X127.25 Y129.56 E181.805
G1 X125.12 Y128.94 E181.92
G1 X124.02 Y128.44 E181.983
G1 X122.99 Y127.83 E182.045
G1 X122.01 Y127.12 E182.108
G1 X121.11 Y126.3 E182.171
G1 X120.29 Y125.38 E182.235
G1 X119.6 Y124.43 E182.296
G1 X118.99 Y123.38 E182.36
G1 X118.48 Y122.26 E182.423
G1 X117.87 Y120.11 E182.54
G1 X117.68 Y117.98 E182.651
G1 X117.88 Y115.84 E182.762
G1 X118.5 Y113.7 E182.879
G1 X119.01 Y112.58 E182.942
G1 X119.62 Y111.55 E183.005
G1 X120.34 Y110.57 E183.068
G1 X121.14 Y109.69 E183.129
G1 X122.04 Y108.87 E183.193
G1 X123.03 Y108.16 E183.256
G1 X124.07 Y107.55 E183.319
G1 X125.18 Y107.06 E183.382
G1 X127.32 Y106.45 E183.497
G1 X129.48 Y106.26 E183.61
G1 X131.6 Y106.45 E183.721
G1 X133.77 Y107.09 E183.838
G1 X134.88 Y107.6 E183.902
G1 X135.88 Y108.18 E183.962
G1 X136.86 Y108.9 E184.025
G1 X137.77 Y109.72 E184.089
G1 X138.58 Y110.63 E184.152
G1 X139.3 Y111.62 E184.216
G1 X139.88 Y112.63 E184.276
G1 X140.39 Y113.74 E184.34
G1 X141 Y115.93 E184.458
G1 X141.19 Y118.07 E184.569
G1 X140.98 Y120.21 E184.681
G1 X140.47 Y121.97 E184.776
G1 X140.38 Y122.3
G1 X142.68 Y122.79 F12000
G1 X144.3 Y123.4
G1 X145.75 Y122.66
G1 X149.1 Y121.66
G1 X155.79 Y120.54
G1 X156.49 Y125.3 E185.026 F1200
G1 X157.09 Y130.58 E185.302
G1 X157.28 Y134.4 E185.501
G1 Y138.7 E185.724
G1 X157.26 Y139.3 E185.756
G1 X119.57 Y139.32 E187.714
G1 X109.34 Y123.69 E188.685
G1 X109.25 Y101.92 E189.817
G1 X111.83 Y96.18 E190.144
G1 X111.96 Y95.96 E190.157
G1 X112.07 Y95.87 E190.164
G1 X112.19 Y95.82 E190.171
G1 X112.45 Y95.78 E190.185
G1 X138.89 Y95.69 E191.559
G1 X151.02 Y103.09 E192.297
G1 X153.15 Y109.25 E192.636
G1 X154.53 Y114.64 E192.925
G1 X155.66 Y119.54 E193.186
G1 X155.75 Y120.19 E193.221
G1 X155.79 Y120.54
G1 E189.221 F2400
G1 X137.56 Y110.05 F12000
G1 X134.64 Y107.83
G1 X133.42 Y108.03
; TYPE:WALL-OUTER
G1 E193.221 F2400
G1 X134.41 Y108.48 E193.277 F1200
G1 X135.33 Y109.02 E193.333
G1 X136.23 Y109.68 E193.39
G1 X137.06 Y110.43 E193.449
G1 X137.8 Y111.26 E193.507
G1 X138.46 Y112.17 E193.565
G1 X138.99 Y113.08 E193.62
G1 X139.44 Y114.08 E193.677
G1 X140.01 Y116.11 E193.786
G1 X140.18 Y118.06 E193.888
G1 X139.99 Y120.02 E193.99
G1 X139.44 Y121.96 E194.095
G1 X138.98 Y122.96 E194.153
G1 X138.41 Y123.93 E194.211
G1 X137.75 Y124.82 E194.268
G1 X137 Y125.64 E194.326
G1 X136.17 Y126.38 E194.384
G1 X135.31 Y127.01 E194.439
G1 X134.36 Y127.57 E194.496
G1 X133.34 Y128.02 E194.555
G1 X131.37 Y128.58 E194.661
G1 X129.4 Y128.76 E194.764
G1 X127.44 Y128.57 E194.866
G1 X125.47 Y128 E194.973
G1 X124.48 Y127.55 E195.029
G1 X123.54 Y126.99 E195.086
G1 X122.65 Y126.34 E195.144
G1 X121.82 Y125.59 E195.201
G1 X121.07 Y124.75 E195.26
G1 X120.44 Y123.89 E195.316
G1 X119.88 Y122.92 E195.374
G1 X119.43 Y121.92 E195.431
G1 X118.86 Y119.93 E195.538
G1 X118.69 Y117.98 E195.64
G1 X118.87 Y116.03 E195.742
G1 X119.44 Y114.05 E195.849
G1 X119.9 Y113.05 E195.906
G1 X120.46 Y112.1 E195.963
G1 X121.12 Y111.2 E196.021
G1 X121.84 Y110.4 E196.077
G1 X122.67 Y109.65 E196.136
G1 X123.57 Y109 E196.193
G1 X124.53 Y108.45 E196.251
G1 X125.52 Y108 E196.307
G1 X127.5 Y107.43 E196.414
G1 X129.47 Y107.26 E196.517
G1 X131.41 Y107.44 E196.618
G1 X133.09 Y107.93 E196.709
G1 X133.42 Y108.03
G1 X134.41 Y108.48
G1 X135.33 Y109.02
G1 X136.01 Y109.52
G1 X133.6 Y107.56 F12000
; TYPE:WALL-INNER
G1 X134.65 Y108.04 E196.769 F1200
G1 X135.61 Y108.6 E196.827
G1 X136.55 Y109.29 E196.887
G1 X137.41 Y110.08 E196.948
G1 X138.19 Y110.95 E197.009
G1 X138.88 Y111.89 E197.069
G1 X139.44 Y112.86 E197.127
G1 X139.92 Y113.91 E197.188
G1 X140.51 Y116.02 E197.301
G1 X140.68 Y118.07 E197.408
G1 X140.49 Y120.11 E197.515
G1 X139.91 Y122.13 E197.624
G1 X139.42 Y123.19 E197.685
G1 X138.83 Y124.2 E197.746
G1 X138.14 Y125.13 E197.806
G1 X137.36 Y125.99 E197.866
G1 X136.49 Y126.77 E197.927
G1 X135.58 Y127.43 E197.985
G1 X134.59 Y128.01 E198.045
G1 X133.51 Y128.49 E198.106
G1 X131.46 Y129.08 E198.217
G1 X129.4 Y129.26 E198.325
G1 X127.35 Y129.06 E198.432
G1 X125.3 Y128.47 E198.543
G1 X124.25 Y127.99 E198.602
G1 X123.26 Y127.41 E198.662
G1 X122.33 Y126.73 E198.722
G1 X121.47 Y125.95 E198.783
G1 X120.68 Y125.07 E198.844
G1 X120.02 Y124.16 E198.902
G1 X119.43 Y123.15 E198.963
G1 X118.95 Y122.09 E199.023
G1 X118.37 Y120.02 E199.135
G1 X118.18 Y117.98 E199.242
G1 X118.38 Y115.93 E199.348
G1 X118.97 Y113.87 E199.46
G1 X119.46 Y112.81 E199.521
G1 X120.04 Y111.82 E199.58
G1 X120.73 Y110.89 E199.641
G1 X121.49 Y110.05 E199.7
G1 X122.36 Y109.26 E199.76
G1 X123.3 Y108.58 E199.821
G1 X124.3 Y108 E199.881
G1 X125.35 Y107.53 E199.941
G1 X127.41 Y106.94 E200.052
G1 X129.48 Y106.76 E200.16
G1 X131.51 Y106.95 E200.266
G1 X133.26 Y107.46 E200.361
G1 X133.6 Y107.56
G1 X133.79 Y107.37 F12000
G1 X127.17 Y105.06
G1 X126.89 Y105.57 E200.391 F1200
G1 X126.52 Y106.01 E200.421
G1 X126.07 Y106.38 E200.452
G1 X125.55 Y106.65 E200.482
G1 X125.01 Y106.82 E200.511
G1 X124.37 Y106.88 E200.545
G1 X123.78 Y106.81 E200.576
G1 X123.23 Y106.64 E200.605
G1 X122.75 Y106.38 E200.634
G1 X122.27 Y105.99 E200.666
G1 X121.9 Y105.53 E200.697
G1 X121.63 Y105.02 E200.727
G1 X121.46 Y104.48 E200.756
G1 X121.4 Y103.84 E200.79
G1 X121.46 Y103.28 E200.819
G1 X121.65 Y102.7 E200.851
G1 X121.93 Y102.18 E200.881
G1 X122.3 Y101.74 E200.911
G1 X122.75 Y101.37 E200.942
G1 X123.27 Y101.1 E200.972
G1 X123.81 Y100.93 E201.001
G1 X124.45 Y100.87 E201.035
G1 X125.03 Y100.94 E201.065
G1 X125.56 Y101.1 E201.094
G1 X126.1 Y101.39 E201.126
G1 X126.55 Y101.77 E201.156
G1 X126.92 Y102.22 E201.186
G1 X127.19 Y102.74 E201.217
G1 X127.36 Y103.31 E201.248
G1 X127.41 Y103.92 E201.28
G1 X127.35 Y104.5 E201.31
G1 X127.28 Y104.72 E201.322
G1 X127.17 Y105.06
G1 X126.25 Y104.66 F12000
; TYPE:WALL-OUTER
G1 X126.06 Y105 E201.342 F1200
G1 X125.81 Y105.3 E201.363
G1 X125.51 Y105.54 E201.383
G1 X125.17 Y105.73 E201.403
G1 X124.82 Y105.84 E201.422
G1 X124.38 Y105.88 E201.445
G1 X123.99 Y105.83 E201.465
G1 X123.62 Y105.71 E201.485
G1 X123.31 Y105.55 E201.504
G1 X122.99 Y105.28 E201.526
G1 X122.74 Y104.98 E201.546
G1 X122.56 Y104.63 E201.566
G1 X122.45 Y104.28 E201.585
G1 X122.41 Y103.85 E201.608
G1 X122.45 Y103.49 E201.627
G1 X122.57 Y103.09 E201.648
G1 X122.76 Y102.75 E201.668
G1 X123.01 Y102.45 E201.689
G1 X123.31 Y102.21 E201.709
G1 X123.65 Y102.02 E201.729
G1 X124 Y101.92 E201.748
G1 X124.44 Y101.88 E201.771
G1 X124.83 Y101.92 E201.791
G1 X125.17 Y102.02 E201.81
G1 X125.54 Y102.22 E201.832
G1 X125.83 Y102.47 E201.852
G1 X126.08 Y102.77 E201.872
G1 X126.26 Y103.12 E201.892
G1 X126.37 Y103.5 E201.913
G1 X126.41 Y103.91 E201.934
G1 X126.37 Y104.29 E201.954
G1 X126.25 Y104.66
G1 X126.06 Y105
G1 X125.81 Y105.3
G1 X125.51 Y105.54
G1 X125.17 Y105.73
G1 X124.82 Y105.84
G1 X124.38 Y105.88
G1 X123.99 Y105.83
G1 X123.75 Y105.76
G1 X126.71 Y104.86 F12000
; TYPE:WALL-INNER
G1 X126.48 Y105.29 E201.98 F1200
G1 X126.17 Y105.66 E202.005
G1 X125.79 Y105.96 E202.03
G1 X125.36 Y106.19 E202.055
G1 X124.91 Y106.33 E202.079
G1 X124.37 Y106.38 E202.108
G1 X123.89 Y106.32 E202.133
G1 X123.43 Y106.18 E202.158
G1 X123.03 Y105.96 E202.182
G1 X122.63 Y105.63 E202.209
G1 X122.32 Y105.26 E202.234
G1 X122.09 Y104.83 E202.259
G1 X121.96 Y104.38 E202.283
G1 X121.91 Y103.84 E202.312
G1 X121.95 Y103.39 E202.335
G1 X122.11 Y102.89 E202.362
G1 X122.34 Y102.47 E202.388
G1 X122.65 Y102.09 E202.413
G1 X123.03 Y101.79 E202.438
G1 X123.46 Y101.56 E202.463
G1 X123.9 Y101.42 E202.487
G1 X124.45 Y101.37 E202.516
G1 X124.93 Y101.43 E202.541
G1 X125.36 Y101.56 E202.564
G1 X125.82 Y101.81 E202.592
G1 X126.19 Y102.12 E202.617
G1 X126.5 Y102.49 E202.642
G1 X126.73 Y102.93 E202.668
G1 X126.87 Y103.41 E202.693
G1 X126.91 Y103.92 E202.72
G1 X126.86 Y104.4 E202.745
G1 X126.82 Y104.53 E202.752
G1 X126.71 Y104.86
G1 E198.752 F2400
G1 X122.9 Y108.62 F12000
G1 X119.19 Y112.23
G1 X117.82 Y117.98
G1 X119.17 Y123.4
G1 X120.51 Y126.53
G1 E202.752 F2400
G1 X121.05 Y126.74 E202.782 F1200
G1 X121.55 Y127.05 E202.813
G1 X121.96 Y127.43 E202.842
G1 X122.34 Y127.96 E202.876
G1 X122.57 Y128.5 E202.906
G1 X122.69 Y129.06 E202.936
G1 X122.71 Y129.61 E202.965
G1 X122.61 Y130.22 E202.997
G1 X122.4 Y130.77 E203.027
G1 X122.09 Y131.26 E203.057
G1 X121.71 Y131.68 E203.087
G1 X121.18 Y132.05 E203.12
G1 X120.67 Y132.28 E203.149
G1 X120.08 Y132.41 E203.181
G1 X119.53 Y132.43 E203.21
G1 X118.92 Y132.33 E203.242
G1 X118.37 Y132.12 E203.272
G1 X117.88 Y131.81 E203.302
G1 X117.46 Y131.42 E203.332
G1 X117.09 Y130.89 E203.366
G1 X116.85 Y130.35 E203.396
G1 X116.73 Y129.79 E203.426
G1 X116.71 Y129.24 E203.455
G1 X116.81 Y128.63 E203.487
G1 X117.02 Y128.09 E203.517
G1 X117.34 Y127.59 E203.548
G1 X117.75 Y127.15 E203.579
G1 X118.26 Y126.8 E203.611
G1 X118.82 Y126.56 E203.643
G1 X119.31 Y126.45 E203.669
G1 X119.93 Y126.43 E203.701
G1 X120.16 Y126.47 E203.713
G1 X120.51 Y126.53
G1 X120.24 Y127.5 F12000
; TYPE:WALL-OUTER
G1 X120.6 Y127.64 E203.734 F1200
G1 X120.94 Y127.85 E203.754
G1 X121.2 Y128.1 E203.773
G1 X121.46 Y128.46 E203.796
G1 X121.61 Y128.81 E203.816
G1 X121.7 Y129.19 E203.836
G1 X121.71 Y129.55 E203.855
G1 X121.64 Y129.96 E203.876
G1 X121.5 Y130.32 E203.897
G1 X121.29 Y130.65 E203.917
G1 X121.04 Y130.92 E203.936
G1 X120.68 Y131.18 E203.959
G1 X120.36 Y131.32 E203.978
G1 X119.95 Y131.41 E203.999
G1 X119.59 Y131.43 E204.018
G1 X119.18 Y131.36 E204.039
G1 X118.82 Y131.22 E204.06
G1 X118.49 Y131.01 E204.08
G1 X118.22 Y130.76 E204.099
G1 X117.96 Y130.4 E204.122
G1 X117.81 Y130.04 E204.142
G1 X117.73 Y129.67 E204.162
G1 X117.71 Y129.31 E204.181
G1 X117.78 Y128.9 E204.203
G1 X117.92 Y128.54 E204.223
G1 X118.13 Y128.2 E204.243
G1 X118.4 Y127.91 E204.264
G1 X118.74 Y127.68 E204.285
G1 X119.12 Y127.52 E204.307
G1 X119.44 Y127.45 E204.324
G1 X119.86 Y127.43 E204.345
G1 X120.24 Y127.5
G1 X120.6 Y127.64
G1 X120.94 Y127.85
G1 X121.2 Y128.1
G1 X121.46 Y128.46
G1 X121.61 Y128.81
G1 X121.7 Y129.19
G1 X121.71 Y129.55
G1 X121.66 Y129.83
G1 X120.38 Y127.02 F12000
; TYPE:WALL-INNER
G1 X120.83 Y127.19 E204.371 F1200
G1 X121.24 Y127.45 E204.396
G1 X121.58 Y127.76 E204.42
G1 X121.9 Y128.21 E204.448
G1 X122.09 Y128.66 E204.474
G1 X122.19 Y129.13 E204.499
G1 X122.21 Y129.58 E204.522
G1 X122.12 Y130.09 E204.549
G1 X121.95 Y130.54 E204.574
G1 X121.69 Y130.96 E204.6
G1 X121.37 Y131.3 E204.624
G1 X120.93 Y131.61 E204.652
G1 X120.51 Y131.8 E204.676
G1 X120.02 Y131.91 E204.703
G1 X119.56 Y131.93 E204.726
G1 X119.05 Y131.84 E204.753
G1 X118.59 Y131.67 E204.778
G1 X118.18 Y131.41 E204.804
G1 X117.84 Y131.09 E204.828
G1 X117.52 Y130.65 E204.856
G1 X117.33 Y130.2 E204.882
G1 X117.23 Y129.73 E204.907
G1 X117.21 Y129.28 E204.93
G1 X117.3 Y128.76 E204.957
G1 X117.47 Y128.31 E204.982
G1 X117.73 Y127.9 E205.008
G1 X118.08 Y127.53 E205.034
G1 X118.5 Y127.24 E205.061
G1 X118.97 Y127.04 E205.087
G1 X119.38 Y126.95 E205.109
G1 X119.9 Y126.93 E205.136
G1 X120.03 Y126.96 E205.143
G1 X120.38 Y127.02
G1 X120.56 Y126.83 F12000
G1 X110 Y124.09
; TYPE:BOTTOM-FILL
G1 Y101.07 E206.339 F1200
G1 X110.5 Y99.96 F12000
G1 Y124.85 E207.633 F1200
G1 X111 Y125.61 F12000
G1 Y98.85 E209.024 F1200
G1 X111.5 Y97.74 F12000
G1 Y126.38 E210.512 F1200
G1 X112 Y127.14 F12000
G1 Y96.62 E212.098 F1200
G1 X112.5 Y96.12 F12000
G1 Y127.9 E213.75 F1200
G1 X113 Y128.67 F12000
G1 Y96.11 E215.442 F1200
G1 X113.5 Y96.11 F12000
G1 Y129.43 E217.174 F1200
G1 X114 Y130.2 F12000
G1 Y96.11 E218.945 F1200
G1 X114.5 Y96.11 F12000
G1 Y130.96 E220.756 F1200
G1 X115 Y131.72 F12000
G1 Y96.11 E222.607 F1200
G1 X115.5 Y96.11 F12000
G1 Y132.49 E224.498 F1200
G1 X116 Y133.25 F12000
G1 Y130.39 E224.646 F1200
G1 Y128.4 F12000
G1 Y96.1 E226.325 F1200
G1 X116.5 Y96.1 F12000
G1 Y127.34 E227.948 F1200
G1 X117 Y126.72 F12000
G1 Y119.8 E228.307 F1200
G1 Y116.24 F12000
G1 Y96.1 E229.354 F1200
G1 X123.82 Y100.96 F12000
G1 X126.22 Y102.09
G1 X128 Y105.22
G1 Y105.54 E229.371 F1200
G1 X121.42 Y109.57 F12000
G1 X118.08 Y113.66
G1 X117.5 Y114.14
G1 Y96.1 E230.308 F1200
G1 X118 Y96.1 F12000
G1 Y112.77 E231.175 F1200
G1 X118.5 Y111.8 F12000
G1 Y96.09 E231.99 F1200
G1 X119 Y96.09 F12000
G1 Y110.97 E232.764 F1200
G1 X119.5 Y110.29 F12000
G1 Y96.09 E233.502 F1200
G1 X120 Y96.09 F12000
G1 Y109.69 E234.209 F1200
G1 X120.5 Y109.14 F12000
G1 Y96.09 E234.887 F1200
G1 X121 Y96.09 F12000
G1 Y102.12 E235.201 F1200
G1 X121.5 Y101.38 F12000
G1 Y96.08 E235.476 F1200
G1 X122 Y96.08 F12000
G1 Y100.9 E235.726 F1200
G1 X122.5 Y100.55 F12000
G1 Y96.08 E235.958 F1200
G1 X123 Y96.08 F12000
G1 Y100.3 E236.178 F1200
G1 X123.5 Y100.14 F12000
G1 Y96.08 E236.389 F1200
G1 X124 Y96.08 F12000
G1 Y100.07 E236.596 F1200
G1 X124.5 Y100.03 F12000
G1 Y96.07 E236.802 F1200
G1 X125 Y96.07 F12000
G1 Y100.09 E237.01 F1200
G1 X125.5 Y100.2 F12000
G1 Y96.07 E237.225 F1200
G1 X126 Y96.07 F12000
G1 Y100.38 E237.449 F1200
G1 X126.5 Y100.65 F12000
G1 Y96.07 E237.687 F1200
G1 X127 Y96.07 F12000
G1 Y101.05 E237.946 F1200
G1 X127.5 Y101.6 F12000
G1 Y96.06 E238.234 F1200
G1 X128 Y96.06 F12000
G1 Y102.51 E238.569 F1200
G1 X128.5 Y105.5 F12000
G1 Y96.06 E239.06 F1200
G1 X129 Y96.06 F12000
G1 Y105.45 E239.548 F1200
G1 X129.5 Y105.41 F12000
G1 Y96.06 E240.034 F1200
G1 X130 Y96.06 F12000
G1 Y105.46 E240.523 F1200
G1 X130.5 Y105.51 F12000
G1 Y96.05 E241.014 F1200
G1 X131 Y96.05 F12000
G1 Y105.55 E241.508 F1200
G1 X131.5 Y105.6 F12000
G1 Y96.05 E242.004 F1200
G1 X132 Y96.05 F12000
G1 Y105.69 E242.505 F1200
G1 X132.5 Y105.84 F12000
G1 Y96.05 E243.014 F1200
G1 X133 Y96.05 F12000
G1 Y105.99 E243.531 F1200
G1 X133.5 Y106.13 F12000
G1 Y96.04 E244.055 F1200
G1 X134 Y96.04 F12000
G1 Y106.28 E244.587 F1200
G1 X134.5 Y106.5 F12000
G1 Y96.04 E245.13 F1200
G1 X135 Y96.04 F12000
G1 Y106.73 E245.686 F1200
G1 X135.5 Y106.99 F12000
G1 Y96.04 E246.255 F1200
G1 X136 Y96.04 F12000
G1 Y107.28 E246.839 F1200
G1 X136.5 Y107.59 F12000
G1 Y96.03 E247.44 F1200
G1 X137 Y96.03 F12000
G1 Y107.96 E248.06 F1200
G1 X137.5 Y108.34 F12000
G1 Y96.03 E248.7 F1200
G1 X138 Y96.03 F12000
G1 Y108.8 E249.363 F1200
G1 X138.5 Y109.28 F12000
G1 Y96.03 E250.052 F1200
G1 X139 Y96.15 F12000
G1 Y109.84 E250.763 F1200
G1 X139.5 Y110.47 F12000
G1 Y96.46 E251.492 F1200
G1 X140 Y96.76 F12000
G1 Y111.16 E252.24 F1200
G1 X140.5 Y112.02 F12000
G1 Y97.07 E253.017 F1200
G1 X141 Y97.37 F12000
G1 Y113.06 E253.832 F1200
G1 X141.5 Y114.6 F12000
G1 Y97.68 E254.711 F1200
G1 X142 Y97.98 F12000
G1 Y117.57 E255.729 F1200
G1 X142.5 Y117.26 F12000
G1 Y98.29 E256.715 F1200
G1 X143 Y98.59 F12000
G1 Y117.08 E257.676 F1200
G1 X143.5 Y116.95 F12000
G1 Y98.9 E258.614 F1200
G1 X144 Y99.2 F12000
G1 Y116.88 E259.533 F1200
G1 X144.5 Y116.9 F12000
G1 Y99.51 E260.437 F1200
G1 X145 Y99.81 F12000
G1 Y116.97 E261.329 F1200
G1 X145.5 Y117.11 F12000
G1 Y100.12 E262.212 F1200
G1 X146 Y100.42 F12000
G1 Y117.34 E263.091 F1200
G1 X146.5 Y117.66 F12000
G1 Y100.73 E263.971 F1200
G1 X147 Y101.03 F12000
G1 Y118.12 E264.859 F1200
G1 X147.5 Y118.79 F12000
G1 Y101.34 E265.766 F1200
G1 X148 Y101.64 F12000
G1 Y120.3 E266.736 F1200
G1 E262.736 F2400
G1 X139.1 Y112.17 F12000
G1 X135.94 Y108.48
G1 X131.74 Y106.57
G1 X125.53 Y107
G1 X121 Y108.68
G1 E266.736 F2400
G1 Y105.63 E266.894 F1200
G1 X121.5 Y106.37 F12000
G1 Y108.23 E266.991 F1200
G1 X122 Y107.86 F12000
G1 Y106.85 E267.044 F1200
G1 X122.5 Y107.2 F12000
G1 Y107.5 E267.059 F1200
G1 X120.56 Y110.81 F12000
G1 X118.28 Y115.1
G1 X117.5 Y121.88
G1 Y126.3 E267.289 F1200
G1 X118 Y125.99 F12000
G1 Y123.24 E267.432 F1200
G1 X118.5 Y124.22 F12000
G1 Y125.78 E267.514 F1200
G1 X119 Y125.66 F12000
G1 Y125.04 E267.546 F1200
G1 X118.17 Y127.2 F12000
G1 X117.05 Y128.08
G1 X116.5 Y131.52
G1 Y134.01 E267.675 F1200
G1 X117 Y134.78 F12000
G1 Y132.14 E267.812 F1200
G1 X117.5 Y132.56 F12000
G1 Y135.54 E267.967 F1200
G1 X118 Y136.3 F12000
G1 Y132.88 E268.145 F1200
G1 X118.5 Y133.07 F12000
G1 Y137.07 E268.353 F1200
G1 X119 Y137.83 F12000
G1 Y133.19 E268.594 F1200
G1 X119.5 Y133.27 F12000
G1 Y138.59 E268.871 F1200
G1 X120 Y138.97 F12000
G1 Y133.25 E269.168 F1200
G1 X120.5 Y133.17 F12000
G1 Y138.97 E269.47 F1200
G1 X121 Y138.97 F12000
G1 Y133.05 E269.778 F1200
G1 X121.5 Y132.83 F12000
G1 Y138.97 E270.097 F1200
G1 X122 F12000
G1 Y132.5 E270.434 F1200
G1 X122.5 Y132.05 F12000
G1 Y138.97 E270.794 F1200
G1 X123 F12000
G1 Y131.39 E271.188 F1200
G1 X123.5 Y129.98 F12000
G1 Y138.97 E271.655 F1200
G1 X124 F12000
G1 Y129.35 E272.155 F1200
G1 X124.5 Y129.58 F12000
G1 Y138.97 E272.643 F1200
G1 X125 F12000
G1 Y129.78 E273.121 F1200
G1 X125.5 Y129.92 F12000
G1 Y138.97 E273.591 F1200
G1 X126 Y138.97 F12000
G1 Y130.07 E274.054 F1200
G1 X126.5 Y130.21 F12000
G1 Y138.97 E274.509 F1200
G1 X127 F12000
G1 Y130.36 E274.957 F1200
G1 X127.5 Y130.42 F12000
G1 Y138.97 E275.401 F1200
G1 X128 Y138.97 F12000
G1 Y130.47 E275.843 F1200
G1 X128.5 Y130.52 F12000
G1 Y138.97 E276.282 F1200
G1 X129 F12000
G1 Y130.57 E276.719 F1200
G1 X129.5 Y130.6 F12000
G1 Y138.97 E277.154 F1200
G1 X130 F12000
G1 Y130.55 E277.592 F1200
G1 X130.5 Y130.51 F12000
G1 Y138.97 E278.032 F1200
G1 X131 F12000
G1 Y130.46 E278.474 F1200
G1 X131.5 Y130.42 F12000
G1 Y138.97 E278.918 F1200
G1 X132 F12000
G1 Y130.31 E279.368 F1200
G1 X132.5 Y130.17 F12000
G1 Y138.97 E279.825 F1200
G1 X133 Y138.97 F12000
G1 Y130.03 E280.29 F1200
G1 X133.5 Y129.89 F12000
G1 Y138.97 E280.762 F1200
G1 X134 F12000
G1 Y129.74 E281.241 F1200
G1 X134.5 Y129.52 F12000
G1 Y138.97 E281.733 F1200
G1 X135 Y138.97 F12000
G1 Y129.29 E282.235 F1200
G1 X135.5 Y129.03 F12000
G1 Y138.97 E282.752 F1200
G1 X136 F12000
G1 Y128.74 E283.284 F1200
G1 X136.5 Y128.42 F12000
G1 Y138.97 E283.832 F1200
G1 X137 F12000
G1 Y128.05 E284.399 F1200
G1 X137.5 Y127.66 F12000
G1 Y138.97 E284.986 F1200
G1 X138 F12000
G1 Y127.22 E285.597 F1200
G1 X138.5 Y126.73 F12000
G1 Y138.97 E286.233 F1200
G1 X139 F12000
G1 Y126.18 E286.898 F1200
G1 X139.5 Y125.54 F12000
G1 Y138.97 E287.595 F1200
G1 X140 Y138.97 F12000
G1 Y124.85 E288.329 F1200
G1 X140.5 Y124 F12000
G1 Y138.97 E289.107 F1200
G1 X141 F12000
G1 Y122.96 E289.939 F1200
G1 X141.5 Y123.45 F12000
G1 Y138.97 E290.745 F1200
G1 X142 Y138.96 F12000
G1 Y123.87 E291.53 F1200
G1 X142.5 Y124.16 F12000
G1 Y138.96 E292.299 F1200
G1 X143 F12000
G1 Y124.37 E293.057 F1200
G1 X143.5 Y124.49 F12000
G1 Y138.96 E293.809 F1200
G1 X144 F12000
G1 Y124.55 E294.559 F1200
G1 X144.5 Y124.55 F12000
G1 Y138.96 E295.308 F1200
G1 X145 F12000
G1 Y124.47 E296.061 F1200
G1 X145.5 Y124.32 F12000
G1 Y138.96 E296.822 F1200
G1 X146 F12000
G1 Y124.1 E297.595 F1200
G1 X146.5 Y123.8 F12000
G1 Y138.96 E298.383 F1200
G1 X147 F12000
G1 Y123.34 E299.195 F1200
G1 X147.5 Y122.68 F12000
G1 Y138.96 E300.041 F1200
G1 X148 F12000
G1 Y121.24 E300.962 F1200
G1 X148.5 Y138.96 F12000
G1 Y101.95 E302.885 F1200
G1 X149 Y102.25 F12000
G1 Y138.96 E304.793 F1200
G1 X149.5 F12000
G1 Y102.56 E306.685 F1200
G1 X150 Y102.86 F12000
G1 Y138.96 E308.561 F1200
G1 X150.5 F12000
G1 Y103.17 E310.421 F1200
G1 X151 Y104.07 F12000
G1 Y138.96 E312.234 F1200
G1 X151.5 Y138.96 F12000
G1 Y105.52 E313.972 F1200
G1 X152 Y106.96 F12000
G1 Y138.96 E315.635 F1200
G1 X152.5 F12000
G1 Y108.41 E317.223 F1200
G1 X153 Y110.03 F12000
G1 Y138.96 E318.726 F1200
G1 X153.5 Y138.96 F12000
G1 Y112 E320.127 F1200
G1 X154 Y113.96 F12000
G1 Y138.96 E321.426 F1200
G1 X154.5 F12000
G1 Y116.05 E322.617 F1200
G1 X155 Y118.21 F12000
G1 Y138.96 E323.696 F1200
G1 X155.5 F12000
G1 Y120.89 E324.635 F1200
G1 X156 Y124.31 F12000
G1 Y138.96 E325.396 F1200
G1 X156.5 F12000
G1 Y128.42 E325.943 F1200
; Layer Change GCode
; LAYER:1
; LAYER_HEIGHT:0.2
; TYPE:FILL
G1 X159.08 Y130.42 Z0.45 F12000
; TYPE:SKIRT
G1 X159.28 Y134.34 E326.074 F3300
G1 Y138.74 E326.22
G1 X159.22 Y140.11 E326.266
G1 X159.11 Y140.58 E326.282
G1 X158.85 Y140.95 E326.297
G1 X158.41 Y141.23 E326.314
G1 X158.02 Y141.3 E326.328
G1 X153.07 Y141.3 E326.492
G1 X148.13 E326.656
G1 X143.19 Y141.31 E326.821
G1 X138.25 E326.985
G1 X133.31 E327.149
G1 X128.37 E327.314
G1 X123.43 E327.478
G1 X118.49 Y141.32 E327.643
G1 X116.26 Y137.91 E327.778
G1 X114.03 Y134.51 E327.913
G1 X111.8 Y131.1 E328.049
G1 X109.57 Y127.7 E328.184
G1 X107.34 Y124.29 E328.319
G1 X107.32 Y119.73 E328.471
G1 X107.3 Y115.17 E328.623
G1 X107.29 Y110.61 E328.774
G1 X107.27 Y106.05 E328.926
G1 X107.25 Y101.49 E329.078
G1 X108.66 Y98.36 E329.192
G1 X110.06 Y95.23 E329.306
G1 X110.43 Y94.65 E329.329
G1 X110.97 Y94.18 E329.353
G1 X111.6 Y93.88 E329.376
G1 X112.3 Y93.78 E329.399
G1 X116.82 Y93.76 E329.55
G1 X121.35 Y93.75 E329.7
G1 X125.87 Y93.73 E329.851
G1 X130.4 Y93.71 E330.001
G1 X134.92 Y93.7 E330.152
G1 X139.45 Y93.68 E330.302
G1 X142.75 Y95.7 E330.431
G1 X146.06 Y97.72 E330.56
G1 X149.37 Y99.74 E330.689
G1 X152.67 Y101.75 E330.818
G1 X153.87 Y105.21 E330.939
G1 X155.07 Y108.67 E331.061
G1 X155.77 Y111.43 E331.156
G1 X156.47 Y114.19 E331.251
G1 X157.63 Y119.18 E331.421
G1 X157.78 Y120.26 E331.457
G1 X157.77 E331.457
G1 X158.47 Y125.04 E331.618
G1 X159.08 Y130.42 E331.798
G1 X159.58 Y130.37 F12000
G1 X159.78 Y134.33 E331.929 F3300
G1 Y138.75 E332.077
G1 X159.72 Y140.18 E332.124
G1 X159.57 Y140.79 E332.145
G1 X159.2 Y141.32 E332.166
G1 X158.6 Y141.7 E332.19
G1 X158.06 Y141.8 E332.208
G1 X153.08 Y141.8 E332.374
G1 X148.1 E332.54
G1 X143.12 Y141.81 E332.705
G1 X138.14 E332.871
G1 X133.16 E333.037
G1 X128.18 E333.202
G1 X123.2 E333.368
G1 X118.22 Y141.82 E333.534
G1 X115.94 Y138.34 E333.672
G1 X113.67 Y134.87 E333.81
G1 X111.39 Y131.39 E333.948
G1 X109.12 Y127.92 E334.086
G1 X106.84 Y124.44 E334.224
G1 X106.82 Y119.83 E334.378
G1 X106.8 Y115.22 E334.531
G1 X106.78 Y110.61 E334.684
G1 X106.77 Y106 E334.838
G1 X106.75 Y101.39 E334.991
G1 X108.18 Y98.19 E335.108
G1 X109.62 Y94.99 E335.224
G1 X110.04 Y94.33 E335.25
G1 X110.69 Y93.75 E335.279
G1 X111.46 Y93.4 E335.307
G1 X112.26 Y93.28 E335.334
G1 X116.81 Y93.26 E335.486
G1 X121.37 Y93.25 E335.637
G1 X125.92 Y93.23 E335.789
G1 X130.48 Y93.21 E335.94
G1 X135.03 Y93.2 E336.092
G1 X139.59 Y93.18 E336.243
G1 X142.96 Y95.24 E336.375
G1 X146.34 Y97.3 E336.506
G1 X149.71 Y99.36 E336.638
G1 X153.09 Y101.42 E336.769
G1 X154.32 Y104.97 E336.894
G1 X155.55 Y108.53 E337.019
G1 X156.25 Y111.3 E337.115
G1 X156.96 Y114.07 E337.21
G1 X158.12 Y119.09 E337.381
G1 X158.27 Y120.19 E337.418
G1 X158.97 Y124.97 E337.579
G1 X159.58 Y130.37 E337.76
G1 X160.08 Y130.33 F12000
G1 X160.28 Y134.32 E337.892 F3300
G1 Y138.76 E338.04
G1 X160.22 Y140.26 E338.09
G1 X160.03 Y141 E338.115
G1 X159.55 Y141.69 E338.143
G1 X158.78 Y142.17 E338.173
G1 X158.11 Y142.3 E338.196
G1 X153.65 Y142.3 E338.345
G1 X149.18 E338.493
G1 X144.72 E338.641
G1 X140.26 Y142.31 E338.79
G1 X135.8 E338.938
G1 X131.33 E339.087
G1 X126.87 E339.235
G1 X122.41 E339.384
G1 X117.95 Y142.32 E339.532
G1 X115.62 Y138.77 E339.673
G1 X113.3 Y135.23 E339.814
G1 X110.98 Y131.68 E339.955
G1 X108.66 Y128.14 E340.096
G1 X106.34 Y124.59 E340.237
G1 X106.32 Y119.93 E340.392
G1 X106.3 Y115.27 E340.547
G1 X106.28 Y110.6 E340.702
G1 X106.27 Y105.94 E340.857
G1 X106.25 Y101.28 E341.012
G1 X107.71 Y98.02 E341.131
G1 X109.18 Y94.75 E341.25
G1 X109.66 Y94 E341.28
G1 X110.42 Y93.33 E341.313
G1 X111.31 Y92.91 E341.346
G1 X112.22 Y92.78 E341.377
G1 X116.8 Y92.76 E341.529
G1 X121.39 Y92.75 E341.682
G1 X125.97 Y92.73 E341.834
G1 X130.56 Y92.71 E341.987
G1 X135.14 Y92.7 E342.139
G1 X139.73 Y92.68 E342.292
G1 X143.17 Y94.78 E342.426
G1 X146.61 Y96.89 E342.56
G1 X150.06 Y98.99 E342.694
G1 X153.5 Y101.09 E342.828
G1 X154.76 Y104.74 E342.957
G1 X156.03 Y108.39 E343.085
G1 X156.74 Y111.17 E343.181
G1 X157.45 Y113.95 E343.276
G1 X158.61 Y119 E343.448
G1 X158.77 Y120.13 E343.486
G1 X159.46 Y124.91 E343.647
G1 X160.08 Y130.33 E343.829
G1 X160.58 Y130.29 F12000
G1 X160.78 Y134.3 E343.962 F3300
G1 Y138.77 E344.111
G1 X160.71 Y140.33 E344.163
G1 X160.5 Y141.21 E344.193
G1 X159.9 Y142.06 E344.227
G1 X158.97 Y142.65 E344.264
G1 X158.15 Y142.8 E344.292
G1 X153.66 Y142.8 E344.441
G1 X149.16 E344.591
G1 X144.66 E344.74
G1 X140.16 Y142.81 E344.89
G1 X135.67 E345.04
G1 X131.17 E345.189
G1 X126.67 E345.339
G1 X122.17 E345.488
G1 X117.67 Y142.82 E345.638
G1 X115.31 Y139.2 E345.782
G1 X112.94 Y135.59 E345.925
G1 X110.57 Y131.97 E346.069
G1 X108.21 Y128.36 E346.213
G1 X105.84 Y124.74 E346.356
G1 X105.82 Y120.03 E346.513
G1 X105.8 Y115.32 E346.67
G1 X105.79 Y110.6 E346.827
G1 X105.77 Y105.89 E346.984
G1 X105.75 Y101.17 E347.14
G1 X107.24 Y97.85 E347.262
G1 X108.74 Y94.52 E347.383
G1 X109.27 Y93.67 E347.416
G1 X110.14 Y92.91 E347.455
G1 X111.17 Y92.43 E347.493
G1 X112.18 Y92.28 E347.527
G1 X116.8 Y92.26 E347.68
G1 X121.41 Y92.24 E347.834
G1 X126.02 Y92.23 E347.987
G1 X130.64 Y92.21 E348.14
G1 X135.25 Y92.2 E348.294
G1 X139.87 Y92.18 E348.447
G1 X143.38 Y94.32 E348.584
G1 X146.89 Y96.47 E348.721
G1 X150.4 Y98.61 E348.858
G1 X153.91 Y100.75 E348.995
G1 X155.21 Y104.5 E349.127
G1 X156.51 Y108.24 E349.258
G1 X157.22 Y111.04 E349.354
G1 X157.93 Y113.84 E349.45
G1 X159.1 Y118.91 E349.623
G1 X159.26 Y120.04 E349.662
G1 X159.96 Y124.84 E349.823
G1 X160.58 Y130.29 E350.005
G1 X161.08 Y130.25 F12000
G1 X161.28 Y134.29 E350.14 F3300
G1 Y138.78 E350.289
G1 X161.21 Y140.4 E350.343
G1 X160.96 Y141.42 E350.378
G1 X160.25 Y142.43 E350.419
G1 X159.16 Y143.12 E350.462
G1 X158.2 Y143.3 E350.494
G1 X153.67 Y143.3 E350.645
G1 X149.13 E350.796
G1 X144.6 E350.947
G1 X140.07 Y143.31 E351.097
G1 X135.54 E351.248
G1 X131 E351.399
G1 X126.47 E351.55
G1 X121.94 E351.701
G1 X117.4 Y143.32 E351.851
G1 X114.99 Y139.63 E351.998
G1 X112.58 Y135.95 E352.144
G1 X110.17 Y132.26 E352.291
G1 X107.75 Y128.58 E352.437
G1 X105.34 Y124.89 E352.584
G1 X105.32 Y120.13 E352.742
G1 X105.3 Y115.36 E352.901
G1 X105.29 Y110.6 E353.059
G1 X105.27 Y105.83 E353.218
G1 X105.25 Y101.07 E353.376
G1 X106.77 Y97.67 E353.5
G1 X108.3 Y94.28 E353.624
G1 X108.89 Y93.34 E353.66
G1 X109.86 Y92.48 E353.704
G1 X111.02 Y91.95 E353.746
G1 X112.14 Y91.78 E353.784
G1 X116.79 Y91.76 E353.938
G1 X121.43 Y91.75 E354.093
G1 X126.07 Y91.73 E354.247
G1 X130.72 Y91.71 E354.402
G1 X135.36 Y91.7 E354.556
G1 X140.01 Y91.68 E354.711
G1 X143.59 Y93.87 E354.85
G1 X147.17 Y96.05 E354.99
G1 X150.75 Y98.24 E355.129
G1 X154.33 Y100.42 E355.269
G1 X155.66 Y104.26 E355.404
G1 X156.99 Y108.1 E355.539
G1 X157.7 Y110.91 E355.635
G1 X158.42 Y113.72 E355.732
G1 X159.6 Y118.82 E355.906
G1 X159.75 Y119.97 E355.945
G1 X160.46 Y124.78 E356.106
G1 X160.77 Y127.52 E356.198
G1 X161.08 Y130.25 E356.289
G1 X161.58 Y130.21 F12000
G1 X161.78 Y134.28 E356.425 F3300
G1 Y138.8 E356.575
G1 X161.71 Y140.47 E356.631
G1 X161.42 Y141.63 E356.671
G1 X160.61 Y142.79 E356.718
G1 X159.34 Y143.6 E356.768
G1 X158.25 Y143.8 E356.805
G1 X153.68 Y143.8 E356.957
G1 X149.11 E357.109
G1 X144.54 E357.261
G1 X139.97 Y143.81 E357.412
G1 X135.41 E357.564
G1 X130.84 E357.716
G1 X126.27 E357.868
G1 X121.7 E358.02
G1 X117.13 Y143.82 E358.172
G1 X114.68 Y140.06 E358.321
G1 X112.22 Y136.31 E358.471
G1 X109.76 Y132.55 E358.62
G1 X107.3 Y128.8 E358.769
G1 X104.84 Y125.04 E358.918
G1 X104.82 Y120.23 E359.079
G1 X104.8 Y115.41 E359.239
G1 X104.79 Y110.59 E359.399
G1 X104.77 Y105.78 E359.559
G1 X104.75 Y100.96 E359.719
G1 X106.3 Y97.5 E359.846
G1 X107.85 Y94.04 E359.972
G1 X108.5 Y93.02 E360.012
G1 X109.59 Y92.06 E360.06
G1 X110.88 Y91.46 E360.107
G1 X112.1 Y91.28 E360.149
G1 X116.78 Y91.26 E360.304
G1 X121.45 Y91.25 E360.46
G1 X126.13 Y91.23 E360.615
G1 X130.8 Y91.21 E360.77
G1 X135.47 Y91.2 E360.926
G1 X140.15 Y91.18 E361.081
G1 X143.79 Y93.41 E361.224
G1 X147.44 Y95.63 E361.366
G1 X151.09 Y97.86 E361.508
G1 X154.74 Y100.09 E361.65
G1 X156.1 Y104.02 E361.788
G1 X157.47 Y107.95 E361.927
G1 X158.18 Y110.78 E362.024
G1 X158.9 Y113.6 E362.121
G1 X160.09 Y118.73 E362.296
G1 X160.25 Y119.9 E362.335
G1 X160.95 Y124.72 E362.497
G1 X161.26 Y127.46 E362.589
G1 X161.58 Y130.21 E362.681
G1 X162.07 Y130.17 F12000
G1 X162.28 Y134.26 E362.817 F3300
G1 Y138.81 E362.968
G1 X162.2 Y140.54 E363.026
G1 X161.88 Y141.84 E363.071
G1 X160.96 Y143.16 E363.124
G1 X159.53 Y144.07 E363.181
G1 X158.29 Y144.3 E363.222
G1 X153.69 Y144.3 E363.376
G1 X149.09 E363.529
G1 X144.48 E363.682
G1 X139.88 Y144.31 E363.835
G1 X135.28 E363.988
G1 X130.67 E364.141
G1 X126.07 E364.294
G1 X121.47 E364.447
G1 X116.86 Y144.32 E364.6
G1 X114.36 Y140.49 E364.752
G1 X111.86 Y136.67 E364.904
G1 X109.35 Y132.84 E365.057
G1 X106.85 Y129.02 E365.209
G1 X104.34 Y125.19 E365.361
G1 X104.32 Y120.33 E365.523
G1 X104.3 Y115.46 E365.684
G1 X104.28 Y110.59 E365.846
G1 X104.27 Y105.72 E366.008
G1 X104.25 Y100.86 E366.17
G1 X105.83 Y97.33 E366.299
G1 X107.41 Y93.81 E366.427
G1 X108.12 Y92.69 E366.471
G1 X109.31 Y91.64 E366.524
G1 X110.73 Y90.98 E366.576
G1 X112.07 Y90.78 E366.621
G1 X116.77 Y90.76 E366.777
G1 X121.47 Y90.75 E366.934
G1 X126.18 Y90.73 E367.09
G1 X130.88 Y90.71 E367.247
G1 X135.58 Y90.7 E367.403
G1 X140.29 Y90.68 E367.56
G1 X144 Y92.95 E367.704
G1 X147.72 Y95.22 E367.849
G1 X151.44 Y97.49 E367.994
G1 X155.15 Y99.75 E368.139
G1 X156.55 Y103.78 E368.281
G1 X157.95 Y107.81 E368.422
G1 X158.67 Y110.65 E368.52
G1 X159.39 Y113.48 E368.617
G1 X160.58 Y118.64 E368.793
G1 X160.74 Y119.83 E368.833
G1 X161.45 Y124.65 E368.995
G1 X161.76 Y127.41 E369.088
G1 X162.07 Y130.17 E369.18
G1 X162.57 Y130.13 F12000
G1 X162.78 Y134.25 E369.317 F3300
G1 Y138.82 E369.469
G1 X162.7 Y140.61 E369.529
G1 X162.35 Y142.06 E369.578
G1 X161.31 Y143.53 E369.638
G1 X159.71 Y144.54 E369.701
G1 X158.34 Y144.8 E369.748
G1 X153.7 Y144.8 E369.902
G1 X149.06 E370.056
G1 X144.42 E370.21
G1 X139.79 Y144.81 E370.365
G1 X135.15 E370.519
G1 X130.51 E370.673
G1 X125.87 E370.828
G1 X121.23 E370.982
G1 X116.59 Y144.82 E371.136
G1 X114.04 Y140.92 E371.291
G1 X111.49 Y137.03 E371.446
G1 X108.94 Y133.13 E371.601
G1 X106.39 Y129.24 E371.755
G1 X103.84 Y125.34 E371.91
G1 X103.82 Y120.42 E372.074
G1 X103.8 Y115.51 E372.237
G1 X103.78 Y110.59 E372.401
G1 X103.77 Y105.67 E372.565
G1 X103.75 Y100.75 E372.728
G1 X105.36 Y97.16 E372.859
G1 X106.97 Y93.57 E372.99
G1 X107.73 Y92.36 E373.038
G1 X109.04 Y91.21 E373.095
G1 X110.59 Y90.5 E373.152
G1 X112.03 Y90.28 E373.201
G1 X116.76 Y90.26 E373.358
G1 X121.49 Y90.24 E373.515
G1 X126.23 Y90.23 E373.673
G1 X130.96 Y90.21 E373.83
G1 X135.69 Y90.2 E373.988
G1 X140.43 Y90.18 E374.145
G1 X144.21 Y92.49 E374.293
G1 X148 Y94.8 E374.44
G1 X151.78 Y97.11 E374.588
G1 X155.57 Y99.42 E374.735
G1 X157 Y103.54 E374.88
G1 X158.43 Y107.67 E375.025
G1 X159.15 Y110.52 E375.123
G1 X159.87 Y113.36 E375.221
G1 X161.07 Y118.55 E375.398
G1 X161.24 Y119.76 E375.438
G1 X161.94 Y124.59 E375.601
G1 X162.26 Y127.36 E375.694
G1 X162.57 Y130.13 E375.786
G1 X163.07 Y130.09 F12000
G1 X163.28 Y134.24 E375.925 F3300
G1 Y138.83 E376.077
G1 X163.2 Y140.69 E376.139
G1 X162.81 Y142.27 E376.193
G1 X161.66 Y143.9 E376.26
G1 X159.9 Y145.02 E376.329
G1 X158.38 Y145.3 E376.38
G1 X153.71 Y145.3 E376.536
G1 X149.04 E376.691
G1 X144.36 E376.847
G1 X139.69 Y145.31 E377.002
G1 X135.02 E377.158
G1 X130.34 E377.313
G1 X125.67 E377.468
G1 X121 E377.624
G1 X116.32 Y145.32 E377.779
G1 X113.73 Y141.35 E377.937
G1 X111.13 Y137.39 E378.094
G1 X108.54 Y133.42 E378.252
G1 X105.94 Y129.46 E378.41
G1 X103.34 Y125.49 E378.567
G1 X103.32 Y120.52 E378.733
G1 X103.3 Y115.55 E378.898
G1 X103.28 Y110.58 E379.063
G1 X103.26 Y105.61 E379.229
G1 X103.25 Y100.64 E379.394
G1 X104.89 Y96.99 E379.527
G1 X106.53 Y93.33 E379.66
G1 X107.35 Y92.03 E379.711
G1 X108.76 Y90.79 E379.774
G1 X110.44 Y90.01 E379.836
G1 X111.99 Y89.78 E379.888
G1 X116.75 Y89.76 E380.046
G1 X121.51 Y89.74 E380.205
G1 X126.28 Y89.73 E380.363
G1 X131.04 Y89.71 E380.521
G1 X135.8 Y89.7 E380.68
G1 X140.57 Y89.68 E380.838
G1 X144.42 Y92.03 E380.988
G1 X148.27 Y94.38 E381.139
G1 X152.13 Y96.74 E381.289
G1 X155.98 Y99.09 E381.439
G1 X157.44 Y103.31 E381.587
G1 X158.91 Y107.52 E381.736
G1 X159.63 Y110.38 E381.834
G1 X160.36 Y113.25 E381.932
G1 X161.57 Y118.46 E382.11
G1 X161.73 Y119.68 E382.151
G1 X162.44 Y124.52 E382.314
G1 X162.75 Y127.3 E382.407
G1 X163.07 Y130.09 E382.5
G1 X163.57 Y130.05 F12000
G1 X163.78 Y134.23 E382.639 F3300
G1 Y138.84 E382.793
G1 X163.7 Y140.76 E382.857
G1 X163.27 Y142.48 E382.916
G1 X162.01 Y144.27 E382.989
G1 X160.09 Y145.49 E383.064
G1 X158.43 Y145.8 E383.12
G1 X153.72 Y145.8 E383.277
G1 X149.01 E383.434
G1 X144.3 E383.59
G1 X139.6 Y145.81 E383.747
G1 X134.89 E383.903
G1 X130.18 E384.06
G1 X125.47 E384.217
G1 X120.76 E384.373
G1 X116.05 Y145.82 E384.53
G1 X113.41 Y141.78 E384.69
G1 X110.77 Y137.75 E384.851
G1 X108.13 Y133.71 E385.011
G1 X105.49 Y129.68 E385.171
G1 X102.85 Y125.64 E385.332
G1 X102.83 Y121.46 E385.471
G1 X102.81 Y117.27 E385.61
G1 X102.8 Y113.09 E385.749
G1 X102.78 Y108.91 E385.889
G1 X102.76 Y104.72 E386.028
G1 X102.75 Y100.54 E386.167
G1 X104.42 Y96.82 E386.303
G1 X106.09 Y93.1 E386.438
G1 X106.96 Y91.71 E386.493
G1 X108.49 Y90.37 E386.56
G1 X110.3 Y89.53 E386.627
G1 X111.95 Y89.28 E386.682
G1 X116.74 Y89.26 E386.842
G1 X121.54 Y89.24 E387.001
G1 X126.33 Y89.23 E387.161
G1 X131.12 Y89.21 E387.32
G1 X135.91 Y89.2 E387.479
G1 X140.71 Y89.18 E387.639
G1 X144.63 Y91.57 E387.792
G1 X148.55 Y93.97 E387.944
G1 X152.47 Y96.36 E388.097
G1 X156.4 Y98.75 E388.25
G1 X157.89 Y103.07 E388.402
G1 X159.38 Y107.38 E388.554
G1 X160.12 Y110.25 E388.652
G1 X160.85 Y113.13 E388.751
G1 X162.06 Y118.37 E388.93
G1 X162.23 Y119.66 E388.973
G1 X162.93 Y124.46 E389.135
G1 X163.25 Y127.25 E389.228
G1 X163.57 Y130.05 E389.322
G1 X164.07 Y130.01 F12000
G1 X164.28 Y134.21 E389.462 F3300
G1 Y138.85 E389.616
G1 X164.19 Y140.83 E389.682
G1 X163.74 Y142.69 E389.745
G1 X162.36 Y144.64 E389.825
G1 X160.27 Y145.97 E389.907
G1 X158.48 Y146.3 E389.968
G1 X153.73 Y146.3 E390.126
G1 X148.99 E390.284
G1 X144.25 E390.441
G1 X139.5 Y146.31 E390.599
G1 X134.76 E390.757
G1 X130.01 E390.915
G1 X125.27 E391.072
G1 X120.53 E391.23
G1 X115.78 Y146.32 E391.388
G1 X113.1 Y142.21 E391.551
G1 X110.41 Y138.11 E391.714
G1 X107.72 Y134 E391.877
G1 X105.03 Y129.9 E392.041
G1 X102.35 Y125.79 E392.204
G1 X102.33 Y121.57 E392.344
G1 X102.31 Y117.34 E392.485
G1 X102.3 Y113.11 E392.626
G1 X102.28 Y108.88 E392.766
G1 X102.26 Y104.66 E392.907
G1 X102.25 Y100.43 E393.047
G1 X103.95 Y96.65 E393.185
G1 X105.65 Y92.86 E393.323
G1 X106.58 Y91.38 E393.382
G1 X108.21 Y89.94 E393.454
G1 X110.15 Y89.04 E393.525
G1 X111.91 Y88.78 E393.584
G1 X116.73 Y88.76 E393.745
G1 X121.56 Y88.74 E393.905
G1 X126.38 Y88.73 E394.066
G1 X131.2 Y88.71 E394.226
G1 X136.02 Y88.7 E394.386
G1 X140.85 Y88.68 E394.547
G1 X144.84 Y91.11 E394.702
G1 X148.83 Y93.55 E394.858
G1 X152.82 Y95.98 E395.013
G1 X156.81 Y98.42 E395.169
G1 X158.34 Y102.83 E395.324
G1 X159.86 Y107.24 E395.479
G1 X160.6 Y110.12 E395.578
G1 X161.33 Y113.01 E395.677
G1 X162.55 Y118.28 E395.857
G1 X162.72 Y119.54 E395.899
G1 X163.43 Y124.39 E396.063
G1 X163.75 Y127.2 E396.156
G1 X164.07 Y130.01 E396.25
G1 X164.57 Y129.96 F12000
G1 X164.78 Y134.2 E396.391 F3300
G1 Y138.86 E396.547
G1 X164.69 Y140.9 E396.614
G1 X164.2 Y142.9 E396.683
G1 X162.72 Y145.01 E396.769
G1 X160.46 Y146.44 E396.857
G1 X158.52 Y146.8 E396.923
G1 X153.74 Y146.8 E397.082
G1 X148.96 E397.241
G1 X144.19 E397.4
G1 X139.41 Y146.81 E397.559
G1 X134.63 E397.718
G1 X129.85 E397.877
G1 X125.07 E398.036
G1 X120.29 E398.195
G1 X115.51 Y146.82 E398.353
G1 X112.78 Y142.64 E398.519
G1 X110.05 Y138.47 E398.685
G1 X107.31 Y134.29 E398.851
G1 X104.58 Y130.12 E399.017
G1 X101.85 Y125.94 E399.183
G1 X101.83 Y121.67 E399.325
G1 X101.81 Y117.4 E399.467
G1 X101.8 Y113.13 E399.609
G1 X101.78 Y108.86 E399.751
G1 X101.76 Y104.59 E399.893
G1 X101.74 Y100.32 E400.035
G1 X103.47 Y96.47 E400.176
G1 X105.2 Y92.62 E400.316
G1 X106.19 Y91.05 E400.378
G1 X107.93 Y89.52 E400.455
G1 X110.01 Y88.56 E400.531
G1 X111.87 Y88.28 E400.594
G1 X116.72 Y88.26 E400.755
G1 X121.58 Y88.24 E400.917
G1 X126.43 Y88.23 E401.078
G1 X131.28 Y88.21 E401.239
G1 X136.13 Y88.2 E401.401
G1 X140.99 Y88.18 E401.562
G1 X145.04 Y90.66 E401.72
G1 X149.1 Y93.13 E401.878
G1 X153.16 Y95.61 E402.037
G1 X157.22 Y98.09 E402.195
G1 X158.78 Y102.59 E402.353
G1 X160.34 Y107.09 E402.512
G1 X161.08 Y109.99 E402.611
G1 X161.82 Y112.89 E402.711
G1 X163.04 Y118.19 E402.891
G1 X163.22 Y119.47 E402.934
G1 X163.93 Y124.33 E403.098
G1 X164.25 Y127.15 E403.192
G1 X164.57 Y129.96 E403.287
G1 X165.07 Y129.92 F12000
G1 X165.28 Y134.19 E403.429 F3300
G1 Y138.88 E403.585
G1 X165.19 Y140.97 E403.654
G1 X164.66 Y143.11 E403.728
G1 X163.07 Y145.38 E403.82
G1 X160.64 Y146.91 E403.915
G1 X158.57 Y147.3 E403.985
G1 X153.75 Y147.3 E404.146
G1 X148.94 E404.306
G1 X144.13 E404.466
G1 X139.31 Y147.31 E404.626
G1 X134.5 E404.786
G1 X129.68 E404.946
G1 X124.87 E405.106
G1 X120.06 E405.266
G1 X115.24 Y147.32 E405.426
G1 X112.93 Y143.78 E405.567
G1 X110.61 Y140.24 E405.708
G1 X108.29 Y136.7 E405.848
G1 X105.98 Y133.17 E405.989
G1 X103.66 Y129.63 E406.13
G1 X101.35 Y126.09 E406.27
G1 X101.33 Y121.78 E406.414
G1 X101.31 Y117.47 E406.557
G1 X101.3 Y113.16 E406.7
G1 X101.28 Y108.84 E406.844
G1 X101.26 Y104.53 E406.987
G1 X101.24 Y100.22 E407.131
G1 X103 Y96.3 E407.274
G1 X104.76 Y92.39 E407.416
G1 X105.81 Y90.72 E407.482
G1 X107.66 Y89.1 E407.564
G1 X109.86 Y88.08 E407.644
G1 X111.83 Y87.78 E407.711
G1 X116.72 Y87.76 E407.873
G1 X121.6 Y87.74 E408.035
G1 X126.48 Y87.73 E408.198
G1 X131.36 Y87.71 E408.36
G1 X136.24 Y87.69 E408.523
G1 X141.13 Y87.68 E408.685
G1 X145.25 Y90.2 E408.846
G1 X149.38 Y92.72 E409.007
G1 X153.51 Y95.24 E409.167
G1 X157.64 Y97.75 E409.328
G1 X159.23 Y102.35 E409.49
G1 X160.82 Y106.95 E409.652
G1 X161.56 Y109.86 E409.752
G1 X162.3 Y112.77 E409.852
G1 X163.54 Y118.1 E410.034
G1 X163.71 Y119.39 E410.077
G1 X164.42 Y124.27 E410.241
G1 X164.74 Y127.09 E410.336
G1 X165.07 Y129.92 E410.43
G1 E406.43 F2400
G1 X157.93 Y130.44 F12000
G1 X157.05 Y128.83
G1 X147.99 Y120.5
G1 X138.93 Y112.16
G1 X135.82 Y108.64
G1 X130.77 Y106.7
G1 X124.51 Y106.67
G1 X123.88 Y106.58
; TYPE:WALL-INNER
G1 E410.43 F2400
G1 X123.37 Y106.43 E410.448 F3300
G1 X122.9 Y106.18 E410.466
G1 X122.48 Y105.84 E410.483
G1 X122.14 Y105.43 E410.501
G1 X121.88 Y104.96 E410.519
G1 X121.71 Y104.44 E410.537
G1 X121.65 Y103.88 E410.556
G1 X121.71 Y103.33 E410.574
G1 X121.91 Y102.72 E410.596
G1 X122.18 Y102.26 E410.614
G1 X122.54 Y101.86 E410.631
G1 X122.96 Y101.53 E410.649
G1 X123.43 Y101.3 E410.667
G1 X123.86 Y101.18 E410.681
G1 X124.41 Y101.12 E410.7
G1 X124.94 Y101.17 E410.718
G1 X125.47 Y101.33 E410.736
G1 X126.02 Y101.64 E410.757
G1 X126.43 Y102 E410.775
G1 X126.75 Y102.43 E410.793
G1 X126.99 Y102.92 E410.811
G1 X127.13 Y103.45 E410.829
G1 X127.16 Y104 E410.848
G1 X127.08 Y104.53 E410.865
G1 X126.91 Y105.04 E410.883
G1 X126.64 Y105.5 E410.901
G1 X126.28 Y105.89 E410.919
G1 X125.86 Y106.22 E410.936
G1 X125.39 Y106.45 E410.954
G1 X124.96 Y106.57 E410.969
G1 X124.41 Y106.63 E410.987
G1 X124.16 Y106.61 E410.995
G1 X123.88 Y106.58
G1 X123.96 Y106.18 F12000
G1 X123.52 Y106.05 E411.011 F3300
G1 X123.12 Y105.84 E411.026
G1 X122.76 Y105.56 E411.041
G1 X122.47 Y105.21 E411.056
G1 X122.25 Y104.8 E411.071
G1 X122.11 Y104.36 E411.087
G1 X122.06 Y103.88 E411.103
G1 X122.1 Y103.41 E411.118
G1 X122.27 Y102.89 E411.137
G1 X122.51 Y102.49 E411.152
G1 X122.81 Y102.15 E411.167
G1 X123.17 Y101.88 E411.182
G1 X123.58 Y101.68 E411.198
G1 X123.93 Y101.57 E411.21
G1 X124.41 Y101.52 E411.226
G1 X124.86 Y101.57 E411.241
G1 X125.31 Y101.7 E411.256
G1 X125.79 Y101.97 E411.275
G1 X126.13 Y102.28 E411.29
G1 X126.41 Y102.64 E411.305
G1 X126.61 Y103.06 E411.321
G1 X126.73 Y103.51 E411.336
G1 X126.76 Y103.99 E411.352
G1 X126.69 Y104.44 E411.367
G1 X126.54 Y104.87 E411.382
G1 X126.31 Y105.26 E411.397
G1 X126.01 Y105.6 E411.413
G1 X125.64 Y105.88 E411.428
G1 X125.24 Y106.07 E411.443
G1 X124.88 Y106.18 E411.455
G1 X124.41 Y106.23 E411.471
G1 X124.24 Y106.21 E411.477
G1 X123.96 Y106.18
G1 X124.03 Y105.79 F12000
; TYPE:WALL-OUTER
G1 X123.67 Y105.68 E411.489 F1800
G1 X123.34 Y105.51 E411.502
G1 X123.04 Y105.27 E411.514
G1 X122.8 Y104.98 E411.527
G1 X122.62 Y104.64 E411.54
G1 X122.5 Y104.27 E411.553
G1 X122.46 Y103.88 E411.566
G1 X122.5 Y103.5 E411.579
G1 X122.64 Y103.06 E411.594
G1 X122.83 Y102.73 E411.607
G1 X123.08 Y102.45 E411.619
G1 X123.38 Y102.22 E411.632
G1 X123.73 Y102.05 E411.645
G1 X124.01 Y101.97 E411.654
G1 X124.41 Y101.92 E411.668
G1 X124.79 Y101.96 E411.68
G1 X125.15 Y102.07 E411.693
G1 X125.56 Y102.3 E411.708
G1 X125.84 Y102.55 E411.721
G1 X126.07 Y102.85 E411.734
G1 X126.24 Y103.2 E411.746
G1 X126.34 Y103.57 E411.759
G1 X126.36 Y103.97 E411.772
G1 X126.3 Y104.34 E411.785
G1 X126.18 Y104.7 E411.798
G1 X125.99 Y105.02 E411.81
G1 X125.74 Y105.3 E411.823
G1 X125.43 Y105.53 E411.835
G1 X125.09 Y105.7 E411.848
G1 X124.81 Y105.79 E411.858
G1 X124.41 Y105.83 E411.871
G1 X124.31 Y105.82 E411.874
G1 X124.03 Y105.79
G1 X123.67 Y105.68
G1 X123.34 Y105.51
G1 X123.04 Y105.27
G1 X122.8 Y104.98
G1 X122.62 Y104.64
G1 X122.5 Y104.27
G1 X122.46 Y103.88
G1 X122.49 Y103.56
G1 X123.8 Y106.97 F12000
G1 E407.874 F2400
G1 X121.03 Y110.43 F12000
G1 X118.41 Y115.1
G1 X118.13 Y119.92
G1 X119.24 Y124.23
G1 X119.36 Y126.7
; TYPE:WALL-INNER
G1 E411.874 F2400
G1 X119.99 Y126.69 E411.895 F3300
G1 X120.52 Y126.8 E411.913
G1 X121.02 Y127 E411.931
G1 X121.45 Y127.3 E411.949
G1 X121.78 Y127.61 E411.964
G1 X122.15 Y128.15 E411.986
G1 X122.35 Y128.66 E412.004
G1 X122.45 Y129.17 E412.021
G1 X122.46 Y129.61 E412.036
G1 X122.35 Y130.23 E412.057
G1 X122.13 Y130.73 E412.075
G1 X121.84 Y131.17 E412.092
G1 X121.54 Y131.49 E412.107
G1 X121.09 Y131.81 E412.125
G1 X120.59 Y132.04 E412.144
G1 X119.98 Y132.17 E412.164
G1 X119.53 Y132.18 E412.179
G1 X118.91 Y132.06 E412.2
G1 X118.41 Y131.85 E412.218
G1 X117.97 Y131.56 E412.236
G1 X117.65 Y131.26 E412.25
G1 X117.33 Y130.81 E412.269
G1 X117.1 Y130.32 E412.287
G1 X116.98 Y129.8 E412.304
G1 X116.96 Y129.25 E412.323
G1 X117.08 Y128.62 E412.344
G1 X117.29 Y128.12 E412.362
G1 X117.59 Y127.67 E412.38
G1 X117.98 Y127.29 E412.398
G1 X118.45 Y126.98 E412.417
G1 X118.93 Y126.79 E412.434
G1 X119.09 Y126.76 E412.439
G1 X119.36 Y126.7
G1 X119.41 Y127.1 F12000
G1 X119.95 Y127.09 E412.458 F3300
G1 X120.4 Y127.18 E412.473
G1 X120.83 Y127.36 E412.488
G1 X121.2 Y127.61 E412.503
G1 X121.47 Y127.87 E412.516
G1 X121.8 Y128.34 E412.535
G1 X121.97 Y128.77 E412.55
G1 X122.05 Y129.21 E412.565
G1 X122.06 Y129.58 E412.577
G1 X121.96 Y130.12 E412.595
G1 X121.78 Y130.54 E412.611
G1 X121.53 Y130.92 E412.626
G1 X121.27 Y131.19 E412.638
G1 X120.89 Y131.46 E412.654
G1 X120.46 Y131.66 E412.669
G1 X119.93 Y131.77 E412.687
G1 X119.56 Y131.78 E412.7
G1 X119.02 Y131.68 E412.718
G1 X118.6 Y131.5 E412.733
G1 X118.22 Y131.25 E412.749
G1 X117.95 Y130.99 E412.761
G1 X117.67 Y130.61 E412.777
G1 X117.49 Y130.19 E412.792
G1 X117.38 Y129.75 E412.807
G1 X117.36 Y129.28 E412.822
G1 X117.46 Y128.74 E412.841
G1 X117.64 Y128.31 E412.856
G1 X117.9 Y127.93 E412.872
G1 X118.23 Y127.6 E412.887
G1 X118.63 Y127.34 E412.903
G1 X119.05 Y127.17 E412.918
G1 X119.13 Y127.16 E412.921
G1 X119.41 Y127.1
G1 X119.45 Y127.49 F12000
; TYPE:WALL-OUTER
G1 X119.91 Y127.49 E412.936 F1800
G1 X120.29 Y127.57 E412.949
G1 X120.63 Y127.71 E412.961
G1 X120.95 Y127.92 E412.974
G1 X121.17 Y128.13 E412.984
G1 X121.44 Y128.53 E413
G1 X121.58 Y128.88 E413.013
G1 X121.65 Y129.25 E413.025
G1 X121.66 Y129.55 E413.035
G1 X121.57 Y130 E413.05
G1 X121.43 Y130.35 E413.063
G1 X121.22 Y130.67 E413.076
G1 X121.01 Y130.88 E413.086
G1 X120.69 Y131.12 E413.099
G1 X120.34 Y131.27 E413.112
G1 X119.89 Y131.37 E413.127
G1 X119.59 Y131.38 E413.137
G1 X119.14 Y131.29 E413.152
G1 X118.79 Y131.14 E413.165
G1 X118.47 Y130.93 E413.177
G1 X118.26 Y130.73 E413.187
G1 X118.02 Y130.4 E413.201
G1 X117.87 Y130.06 E413.213
G1 X117.78 Y129.69 E413.226
G1 X117.76 Y129.31 E413.238
G1 X117.85 Y128.85 E413.254
G1 X117.99 Y128.5 E413.266
G1 X118.21 Y128.19 E413.279
G1 X118.49 Y127.91 E413.292
G1 X118.82 Y127.7 E413.305
G1 X119.16 Y127.56 E413.318
G1 X119.45 Y127.49
G1 X119.91 Y127.49
G1 X120.29 Y127.57
G1 X120.63 Y127.71
G1 X120.95 Y127.92
G1 X121.17 Y128.13
G1 X121.44 Y128.53
G1 X121.58 Y128.88
G1 X121.63 Y129.12
G1 X119.32 Y126.3 F12000
G1 X118.14 Y120.16
; TYPE:WALL-INNER
G1 X117.94 Y118.11 E413.386 F3300
G1 X117.94 Y117.88 E413.394
G1 X118.11 Y116.04 E413.455
G1 X118.15 Y115.81 E413.463
G1 X118.75 Y113.76 E413.534
G1 X119.26 Y112.65 E413.575
G1 X119.87 Y111.63 E413.614
G1 X120.51 Y110.75 E413.65
G1 X121.33 Y109.86 E413.691
G1 X122.23 Y109.05 E413.731
G1 X123.21 Y108.34 E413.771
G1 X124.24 Y107.75 E413.811
G1 X125.23 Y107.3 E413.847
G1 X127.4 Y106.69 E413.922
G1 X129.44 Y106.5 E413.99
G1 X131.59 Y106.71 E414.062
G1 X133.65 Y107.3 E414.133
G1 X134.74 Y107.8 E414.173
G1 X135.77 Y108.41 E414.213
G1 X136.74 Y109.12 E414.253
G1 X137.63 Y109.94 E414.293
G1 X138.42 Y110.84 E414.333
G1 X139.07 Y111.72 E414.369
G1 X139.67 Y112.77 E414.409
G1 X140.17 Y113.88 E414.45
G1 X140.76 Y115.96 E414.522
G1 X140.77 Y116.16 E414.529
G1 X140.94 Y118.01 E414.59
G1 X140.75 Y120.1 E414.66
G1 X140.14 Y122.21 E414.733
G1 X139.62 Y123.34 E414.774
G1 X139.08 Y124.27 E414.81
G1 X138.34 Y125.28 E414.852
G1 X137.54 Y126.17 E414.892
G1 X136.65 Y126.96 E414.931
G1 X135.69 Y127.66 E414.971
G1 X134.68 Y128.25 E415.01
G1 X133.6 Y128.73 E415.049
G1 X131.46 Y129.33 E415.123
G1 X129.43 Y129.51 E415.191
G1 X127.32 Y129.31 E415.261
G1 X125.18 Y128.69 E415.335
G1 X124.11 Y128.2 E415.375
G1 X123.09 Y127.6 E415.414
G1 X122.14 Y126.9 E415.453
G1 X121.26 Y126.09 E415.493
G1 X120.45 Y125.17 E415.534
G1 X119.8 Y124.29 E415.57
G1 X119.19 Y123.23 E415.611
G1 X118.74 Y122.25 E415.647
G1 X118.22 Y120.43 E415.71
G1 X118.14 Y120.16
G1 X118.53 Y120.08 F12000
G1 X118.34 Y118.1 E415.776 F3300
G1 X118.34 Y117.9 E415.783
G1 X118.51 Y116.09 E415.843
G1 X118.54 Y115.9 E415.85
G1 X119.12 Y113.9 E415.919
G1 X119.62 Y112.84 E415.958
G1 X120.2 Y111.85 E415.996
G1 X120.82 Y111.01 E416.031
G1 X121.61 Y110.14 E416.07
G1 X122.48 Y109.36 E416.109
G1 X123.42 Y108.68 E416.147
G1 X124.42 Y108.11 E416.185
G1 X125.37 Y107.68 E416.22
G1 X127.47 Y107.08 E416.293
G1 X129.44 Y106.91 E416.358
G1 X131.51 Y107.1 E416.428
G1 X133.51 Y107.68 E416.497
G1 X134.55 Y108.16 E416.535
G1 X135.55 Y108.74 E416.573
G1 X136.48 Y109.43 E416.612
G1 X137.34 Y110.22 E416.651
G1 X138.11 Y111.09 E416.69
G1 X138.73 Y111.94 E416.725
G1 X139.32 Y112.95 E416.763
G1 X139.79 Y114.01 E416.802
G1 X140.36 Y116.03 E416.872
G1 X140.37 Y116.21 E416.878
G1 X140.54 Y118.01 E416.938
G1 X140.35 Y120.03 E417.005
G1 X139.77 Y122.07 E417.076
G1 X139.27 Y123.16 E417.116
G1 X138.75 Y124.06 E417.15
G1 X138.03 Y125.03 E417.19
G1 X137.26 Y125.88 E417.229
G1 X136.4 Y126.65 E417.267
G1 X135.48 Y127.32 E417.305
G1 X134.49 Y127.89 E417.343
G1 X133.46 Y128.35 E417.381
G1 X131.39 Y128.94 E417.452
G1 X129.44 Y129.11 E417.517
G1 X127.39 Y128.92 E417.586
G1 X125.32 Y128.32 E417.657
G1 X124.29 Y127.84 E417.695
G1 X123.32 Y127.27 E417.733
G1 X122.4 Y126.59 E417.771
G1 X121.55 Y125.81 E417.809
G1 X120.76 Y124.92 E417.849
G1 X120.14 Y124.07 E417.884
G1 X119.55 Y123.05 E417.923
G1 X119.12 Y122.11 E417.957
G1 X118.61 Y120.35 E418.018
G1 X118.53 Y120.08
G1 X118.93 Y120.01 F12000
; TYPE:WALL-OUTER
G1 X118.74 Y118.08 E418.082 F1800
G1 X118.74 Y117.92 E418.088
G1 X118.9 Y116.15 E418.147
G1 X118.93 Y115.99 E418.152
G1 X119.5 Y114.04 E418.22
G1 X119.97 Y113.02 E418.257
G1 X120.54 Y112.08 E418.294
G1 X121.13 Y111.26 E418.327
G1 X121.89 Y110.42 E418.365
G1 X122.73 Y109.67 E418.402
G1 X123.64 Y109.02 E418.44
G1 X124.6 Y108.47 E418.477
G1 X125.51 Y108.06 E418.51
G1 X127.54 Y107.48 E418.58
G1 X129.44 Y107.31 E418.643
G1 X131.44 Y107.5 E418.71
G1 X133.37 Y108.06 E418.777
G1 X134.37 Y108.51 E418.814
G1 X135.33 Y109.08 E418.85
G1 X136.23 Y109.74 E418.888
G1 X137.06 Y110.5 E418.925
G1 X137.8 Y111.34 E418.962
G1 X138.4 Y112.16 E418.996
G1 X138.96 Y113.13 E419.033
G1 X139.41 Y114.15 E419.071
G1 X139.97 Y116.1 E419.138
G1 X139.97 Y116.24 E419.143
G1 X140.14 Y118.01 E419.202
G1 X139.96 Y119.95 E419.267
G1 X139.39 Y121.93 E419.335
G1 X138.91 Y122.97 E419.373
G1 X138.41 Y123.84 E419.406
G1 X137.72 Y124.78 E419.445
G1 X136.98 Y125.6 E419.482
G1 X136.15 Y126.34 E419.519
G1 X135.26 Y126.98 E419.556
G1 X134.31 Y127.53 E419.592
G1 X133.32 Y127.98 E419.628
G1 X131.32 Y128.54 E419.697
G1 X129.44 Y128.71 E419.76
G1 X127.47 Y128.52 E419.826
G1 X125.46 Y127.94 E419.895
G1 X124.48 Y127.49 E419.931
G1 X123.54 Y126.93 E419.968
G1 X122.65 Y126.28 E420.004
G1 X121.83 Y125.53 E420.041
G1 X121.07 Y124.67 E420.08
G1 X120.47 Y123.85 E420.113
G1 X119.91 Y122.87 E420.151
G1 X119.49 Y121.97 E420.184
G1 X119 Y120.28 E420.243
G1 X118.93 Y120.01
G1 X118.74 Y118.08
G1 X118.74 Y117.92
G1 X118.82 Y117.02
G1 X117.74 Y120.23 F12000
G1 E416.243 F2400
G1 X120.78 Y125 F12000
G1 X124.93 Y128.36
G1 X129.44 Y129.41
G1 X134.86 Y127.83
G1 X137.31 Y126.36
G1 X146 Y123.3
; TYPE:WALL-INNER
G1 E420.243 F2400
G1 X145.47 Y123.6 E420.263 F3300
G1 X144.89 Y123.8 E420.283
G1 X144.28 Y123.87 E420.304
G1 X143.66 Y123.83 E420.324
G1 X143.05 Y123.66 E420.345
G1 X142.51 Y123.39 E420.366
G1 X142.09 Y123.08 E420.383
G1 X141.61 Y122.55 E420.407
G1 X141.31 Y122 E420.427
G1 X141.11 Y121.42 E420.448
G1 X141.04 Y120.81 E420.468
G1 X141.06 Y120.47 E420.48
G1 X140.97 Y120.79 E420.491
G1 X140.52 Y122.35 E420.545
G1 X139.98 Y123.52 E420.588
G1 X139.42 Y124.49 E420.625
G1 X138.65 Y125.54 E420.668
G1 X137.83 Y126.45 E420.709
G1 X136.91 Y127.27 E420.75
G1 X135.91 Y127.99 E420.791
G1 X134.86 Y128.6 E420.831
G1 X133.73 Y129.11 E420.872
G1 X131.54 Y129.73 E420.948
G1 X129.43 Y129.91 E421.019
G1 X127.24 Y129.71 E421.092
G1 X125.04 Y129.07 E421.168
G1 X123.92 Y128.55 E421.209
G1 X122.87 Y127.94 E421.249
G1 X122.65 Y127.77 E421.259
G1 X122.58 Y127.87 F12000
G1 X122.1 Y127.36 E421.282 F3300
G1 X122.51 Y127.97 F12000
G1 X122.74 Y128.55 E421.303 F3300
G1 X122.85 Y129.13 E421.322
G1 X122.86 Y129.64 E421.339
G1 X122.73 Y130.35 E421.363
G1 X122.49 Y130.92 E421.384
G1 X122.15 Y131.42 E421.404
G1 X121.8 Y131.79 E421.421
G1 X121.29 Y132.16 E421.442
G1 X120.71 Y132.42 E421.463
G1 X120.03 Y132.56 E421.486
G1 X119.5 Y132.58 E421.504
G1 X118.79 Y132.45 E421.528
G1 X118.21 Y132.21 E421.549
G1 X117.72 Y131.87 E421.569
G1 X117.35 Y131.52 E421.586
G1 X116.98 Y131.01 E421.607
G1 X116.72 Y130.45 E421.627
G1 X116.58 Y129.86 E421.647
G1 X116.56 Y129.23 E421.668
G1 X116.69 Y128.51 E421.693
G1 X116.93 Y127.93 E421.713
G1 X117.28 Y127.42 E421.734
G1 X117.73 Y126.97 E421.755
G1 X118.26 Y126.63 E421.776
G1 X118.81 Y126.41 E421.796
G1 X119.32 Y126.3 E421.813
G1 X120.03 Y126.29 E421.837
G1 X120.64 Y126.41 E421.858
G1 X120.91 Y126.53 E421.867
G1 X121.21 Y126.65 E421.878
G1 X121.47 Y126.83 E421.889
G1 X121.24 Y126.62 E421.899
G1 X120.97 Y126.38 E421.911
G1 X120.85 Y126.23 E421.917
G1 X120.13 Y125.42 E421.953
G1 X119.47 Y124.51 E421.991
G1 X118.84 Y123.42 E422.033
G1 X118.37 Y122.38 E422.071
G1 X117.74 Y120.23 E422.145
G1 X117.54 Y118.13 E422.215
G1 X117.54 Y117.86 E422.224
G1 X117.71 Y115.99 E422.287
G1 X117.76 Y115.71 E422.296
G1 X118.37 Y113.62 E422.369
G1 X118.91 Y112.46 E422.411
G1 X119.54 Y111.41 E422.452
G1 X120.2 Y110.5 E422.489
G1 X121.04 Y109.57 E422.531
G1 X121.98 Y108.74 E422.573
G1 X122.99 Y108.01 E422.614
G1 X124.06 Y107.4 E422.655
G1 X124.49 Y107.2 E422.671
G1 X124.99 Y106.97 E422.689
G1 X124.41 Y107.03 F12000
G1 X123.8 Y106.97 E422.71 F3300
G1 X123.22 Y106.8 E422.73
G1 X122.68 Y106.51 E422.75
G1 X122.2 Y106.13 E422.77
G1 X121.81 Y105.66 E422.791
G1 X121.51 Y105.12 E422.811
G1 X121.32 Y104.52 E422.832
G1 X121.25 Y103.88 E422.854
G1 X121.31 Y103.25 E422.875
G1 X121.54 Y102.56 E422.899
G1 X121.86 Y102.02 E422.92
G1 X122.26 Y101.56 E422.94
G1 X122.75 Y101.19 E422.96
G1 X123.29 Y100.93 E422.98
G1 X123.78 Y100.78 E422.997
G1 X124.41 Y100.72 E423.018
G1 X125.02 Y100.78 E423.039
G1 X125.62 Y100.96 E423.06
G1 X126.26 Y101.32 E423.084
G1 X126.72 Y101.73 E423.105
G1 X127.09 Y102.22 E423.125
G1 X127.37 Y102.78 E423.146
G1 X127.53 Y103.39 E423.167
G1 X127.56 Y104.02 E423.188
G1 X127.47 Y104.63 E423.208
G1 X127.27 Y105.21 E423.229
G1 X126.96 Y105.73 E423.249
G1 X126.56 Y106.19 E423.269
G1 X126.07 Y106.56 E423.29
G1 X125.63 Y106.77 E423.306
G1 X126.09 Y106.64 F12000
G1 X127.32 Y106.29 E423.348 F3300
G1 X129.44 Y106.1 E423.419
G1 X131.66 Y106.31 E423.493
G1 X133.79 Y106.93 E423.567
G1 X134.92 Y107.45 E423.608
G1 X135.99 Y108.07 E423.65
G1 X136.99 Y108.82 E423.691
G1 X137.92 Y109.66 E423.733
G1 X138.74 Y110.59 E423.774
G1 X139.4 Y111.5 E423.811
G1 X140.03 Y112.59 E423.853
G1 X140.55 Y113.74 E423.895
G1 X141.15 Y115.89 E423.97
G1 X141.34 Y118.01 E424.04
G1 X141.25 Y119.13 E424.078
G1 X141.35 Y119.14 F12000
G1 X141.19 Y119.72 E424.098 F3300
G1 X141.45 Y119.15 F12000
G1 X141.81 Y118.65 E424.118 F3300
G1 X142.27 Y118.21 E424.139
G1 X142.9 Y117.84 E424.163
G1 X143.49 Y117.64 E424.184
G1 X144.1 Y117.57 E424.205
G1 X144.69 Y117.61 E424.224
G1 X145.19 Y117.73 E424.241
G1 X145.76 Y117.99 E424.262
G1 X146.26 Y118.34 E424.283
G1 X146.68 Y118.79 E424.303
G1 X147.01 Y119.3 E424.323
G1 X147.23 Y119.87 E424.344
G1 X147.34 Y120.48 E424.364
G1 X147.32 Y121.1 E424.385
G1 X147.18 Y121.73 E424.406
G1 X146.85 Y122.41 E424.432
G1 X146.46 Y122.9 E424.452
G1 X146 Y123.3 E424.473
G1 X145.77 Y122.97 F12000
G1 X145.31 Y123.24 E424.49 F3300
G1 X144.8 Y123.41 E424.508
G1 X144.27 Y123.47 E424.526
G1 X143.73 Y123.44 E424.544
G1 X143.2 Y123.29 E424.562
G1 X142.72 Y123.05 E424.58
G1 X142.36 Y122.78 E424.595
G1 X141.94 Y122.31 E424.616
G1 X141.67 Y121.84 E424.634
G1 X141.5 Y121.33 E424.652
G1 X141.44 Y120.8 E424.67
G1 X141.47 Y120.28 E424.687
G1 X141.58 Y119.85 E424.702
G1 X141.8 Y119.35 E424.72
G1 X142.11 Y118.91 E424.738
G1 X142.51 Y118.53 E424.756
G1 X143.06 Y118.21 E424.777
G1 X143.58 Y118.04 E424.795
G1 X144.11 Y117.97 E424.813
G1 X144.63 Y118.01 E424.831
G1 X145.06 Y118.11 E424.845
G1 X145.56 Y118.33 E424.864
G1 X146 Y118.65 E424.881
G1 X146.37 Y119.03 E424.899
G1 X146.65 Y119.48 E424.917
G1 X146.84 Y119.98 E424.935
G1 X146.94 Y120.51 E424.952
G1 X146.93 Y121.05 E424.97
G1 X146.8 Y121.6 E424.989
G1 X146.51 Y122.2 E425.011
G1 X146.17 Y122.63 E425.03
G1 X145.98 Y122.79 E425.038
G1 X145.77 Y122.97
G1 X145.54 Y122.64 F12000
G1 X145.14 Y122.87 E425.053 F3300
G1 X144.71 Y123.01 E425.068
G1 X144.26 Y123.07 E425.083
G1 X143.8 Y123.04 E425.099
G1 X143.34 Y122.91 E425.114
G1 X142.93 Y122.7 E425.13
G1 X142.63 Y122.49 E425.142
G1 X142.27 Y122.08 E425.16
G1 X142.04 Y121.68 E425.176
G1 X141.9 Y121.24 E425.191
G1 X141.84 Y120.79 E425.206
G1 X141.87 Y120.34 E425.221
G1 X141.96 Y119.98 E425.233
G1 X142.15 Y119.55 E425.249
G1 X142.42 Y119.17 E425.264
G1 X142.75 Y118.86 E425.28
G1 X143.23 Y118.57 E425.298
G1 X143.67 Y118.43 E425.314
G1 X144.12 Y118.37 E425.329
G1 X144.57 Y118.4 E425.344
G1 X144.93 Y118.49 E425.356
G1 X145.36 Y118.68 E425.372
G1 X145.74 Y118.95 E425.387
G1 X146.05 Y119.28 E425.402
G1 X146.29 Y119.66 E425.417
G1 X146.46 Y120.09 E425.433
G1 X146.54 Y120.54 E425.448
G1 X146.53 Y121 E425.463
G1 X146.42 Y121.47 E425.479
G1 X146.17 Y121.99 E425.498
G1 X145.89 Y122.35 E425.513
G1 X145.75 Y122.46 E425.519
G1 X145.54 Y122.64
G1 X145.31 Y122.32 F12000
; TYPE:WALL-OUTER
G1 X144.98 Y122.5 E425.532 F1800
G1 X144.62 Y122.62 E425.544
G1 X144.25 Y122.67 E425.557
G1 X143.86 Y122.64 E425.57
G1 X143.49 Y122.54 E425.583
G1 X143.14 Y122.36 E425.596
G1 X142.9 Y122.19 E425.605
G1 X142.59 Y121.84 E425.621
G1 X142.41 Y121.51 E425.633
G1 X142.29 Y121.16 E425.646
G1 X142.24 Y120.78 E425.659
G1 X142.27 Y120.4 E425.671
G1 X142.34 Y120.11 E425.681
G1 X142.5 Y119.75 E425.694
G1 X142.72 Y119.44 E425.707
G1 X143 Y119.18 E425.72
G1 X143.4 Y118.94 E425.735
G1 X143.76 Y118.82 E425.748
G1 X144.13 Y118.77 E425.76
G1 X144.51 Y118.8 E425.773
G1 X144.8 Y118.87 E425.783
G1 X145.16 Y119.03 E425.796
G1 X145.47 Y119.25 E425.809
G1 X145.73 Y119.53 E425.821
G1 X145.93 Y119.85 E425.834
G1 X146.07 Y120.2 E425.846
G1 X146.13 Y120.57 E425.859
G1 X146.13 Y120.95 E425.872
G1 X146.04 Y121.33 E425.885
G1 X145.83 Y121.77 E425.901
G1 X145.6 Y122.07 E425.914
G1 X145.52 Y122.13 E425.917
G1 X145.31 Y122.32
G1 X144.98 Y122.5
G1 X144.62 Y122.62
G1 X144.25 Y122.67
G1 X143.86 Y122.64
G1 X143.49 Y122.54
G1 X143.14 Y122.36
G1 X142.9 Y122.19
G1 X142.63 Y121.88
G1 X146 Y123.3 F12000
G1 E421.917 F2400
G1 X151.8 Y131.47 F12000
G1 X157.59 Y139.64
; TYPE:WALL-INNER
G1 E425.917 F2400
G1 X152.81 Y139.65 E426.076 F3300
G1 X148.04 E426.234
G1 X143.26 E426.393
G1 X138.48 E426.552
G1 X133.71 Y139.66 E426.711
G1 X128.93 E426.87
G1 X124.15 E427.029
G1 X119.38 Y139.67 E427.188
G1 X116.78 Y135.7 E427.345
G1 X114.18 Y131.73 E427.503
G1 X111.58 Y127.76 E427.661
G1 X108.99 Y123.8 E427.819
G1 X108.97 Y119.41 E427.965
G1 X108.95 Y115.02 E428.111
G1 X108.93 Y110.62 E428.257
G1 X108.92 Y106.23 E428.403
G1 X108.9 Y101.84 E428.549
G1 X110.21 Y98.92 E428.655
G1 X111.52 Y96.01 E428.762
G1 X111.69 Y95.74 E428.772
G1 X111.88 Y95.57 E428.78
G1 X112.1 Y95.47 E428.788
G1 X112.42 Y95.43 E428.799
G1 X116.84 Y95.41 E428.946
G1 X121.27 Y95.4 E429.094
G1 X125.7 Y95.38 E429.241
G1 X130.13 Y95.37 E429.388
G1 X134.56 Y95.35 E429.536
G1 X138.99 Y95.34 E429.683
G1 X143.09 Y97.84 E429.843
G1 X147.2 Y100.35 E430.003
G1 X151.31 Y102.85 E430.163
G1 X152.4 Y106 E430.274
G1 X153.49 Y109.15 E430.384
G1 X154.17 Y111.82 E430.476
G1 X154.85 Y114.49 E430.568
G1 X156.02 Y119.58 E430.742
G1 X156.42 Y122.38 E430.836
G1 X156.82 Y125.17 E430.929
G1 X157.44 Y130.56 E431.11
G1 X157.63 Y134.38 E431.237
G1 Y138.65 E431.379
G1 X157.6 Y139.36 E431.403
G1 X157.59 Y139.64
G1 X157.94 Y140.04 F12000
G1 X157.93 Y140.04 E431.403 F3300
G1 X153.08 Y140.05 E431.564
G1 X148.24 E431.725
G1 X143.39 E431.887
G1 X138.55 E432.048
G1 X133.7 Y140.06 E432.209
G1 X128.85 E432.37
G1 X124.01 E432.531
G1 X119.16 Y140.07 E432.692
G1 X116.52 Y136.03 E432.853
G1 X113.87 Y131.99 E433.013
G1 X111.23 Y127.95 E433.174
G1 X108.59 Y123.92 E433.334
G1 X108.57 Y119.49 E433.482
G1 X108.55 Y115.05 E433.629
G1 X108.54 Y110.62 E433.777
G1 X108.52 Y106.19 E433.924
G1 X108.5 Y101.76 E434.072
G1 X109.83 Y98.79 E434.18
G1 X111.17 Y95.82 E434.288
G1 X111.39 Y95.47 E434.302
G1 X111.66 Y95.24 E434.314
G1 X111.98 Y95.09 E434.325
G1 X112.39 Y95.03 E434.339
G1 X116.84 Y95.01 E434.487
G1 X121.29 Y95 E434.635
G1 X125.75 Y94.98 E434.783
G1 X130.2 Y94.97 E434.931
G1 X134.65 Y94.95 E435.08
G1 X139.1 Y94.94 E435.228
G1 X143.28 Y97.49 E435.39
G1 X147.46 Y100.04 E435.553
G1 X151.64 Y102.59 E435.716
G1 X152.76 Y105.81 E435.83
G1 X153.87 Y109.04 E435.943
G1 X154.55 Y111.7 E436.035
G1 X155.23 Y114.37 E436.126
G1 X156.41 Y119.5 E436.301
G1 X156.81 Y122.3 E436.395
G1 X157.22 Y125.09 E436.489
G1 X157.84 Y130.52 E436.671
G1 X158.03 Y134.38 E436.799
G1 Y138.66 E436.942
G1 X157.99 Y139.77 E436.979
G1 X157.94 Y140.04
G1 X158.29 Y140.26 F12000
G1 X158.26 Y140.31 E436.98 F3300
G1 X158.07 Y140.43 E436.988
G1 X157.98 Y140.44 E436.991
G1 X153.1 Y140.45 E437.153
G1 X148.22 E437.316
G1 X143.34 E437.478
G1 X138.46 E437.64
G1 X133.58 Y140.46 E437.803
G1 X128.7 E437.965
G1 X123.82 E438.127
G1 X118.94 Y140.47 E438.289
G1 X116.26 Y136.36 E438.453
G1 X113.57 Y132.25 E438.616
G1 X110.88 Y128.14 E438.779
G1 X108.19 Y124.04 E438.942
G1 X108.17 Y119.56 E439.091
G1 X108.15 Y115.09 E439.24
G1 X108.14 Y110.62 E439.389
G1 X108.12 Y106.15 E439.538
G1 X108.1 Y101.67 E439.686
G1 X109.46 Y98.65 E439.797
G1 X110.82 Y95.63 E439.907
G1 X111.08 Y95.21 E439.923
G1 X111.44 Y94.9 E439.939
G1 X111.87 Y94.7 E439.955
G1 X112.36 Y94.63 E439.971
G1 X116.84 Y94.61 E440.12
G1 X121.31 Y94.6 E440.269
G1 X125.79 Y94.58 E440.418
G1 X130.26 Y94.57 E440.567
G1 X134.74 Y94.55 E440.716
G1 X139.21 Y94.54 E440.864
G1 X143.46 Y97.13 E441.03
G1 X147.72 Y99.73 E441.196
G1 X151.97 Y102.32 E441.362
G1 X153.11 Y105.62 E441.478
G1 X154.25 Y108.91 E441.594
G1 X154.94 Y111.6 E441.686
G1 X155.62 Y114.28 E441.778
G1 X156.81 Y119.44 E441.954
G1 X157.21 Y122.24 E442.048
G1 X157.61 Y125.04 E442.142
G1 X158.24 Y130.49 E442.324
G1 X158.43 Y134.36 E442.453
G1 Y138.69 E442.597
G1 X158.38 Y139.98 E442.64
G1 X158.29 Y140.26
G1 X158.66 Y140.43 F12000
; TYPE:WALL-OUTER
G1 X158.54 Y140.6 E442.647 F1800
G1 X158.22 Y140.81 E442.66
G1 X158.01 Y140.84 E442.667
G1 X153.1 Y140.85 E442.83
G1 X148.19 E442.994
G1 X143.28 E443.157
G1 X138.37 E443.32
G1 X133.46 Y140.86 E443.484
G1 X128.55 E443.647
G1 X123.64 E443.81
G1 X118.73 Y140.87 E443.974
G1 X115.99 Y136.69 E444.14
G1 X113.26 Y132.51 E444.306
G1 X110.52 Y128.33 E444.472
G1 X107.79 Y124.16 E444.638
G1 X107.77 Y119.64 E444.788
G1 X107.75 Y115.13 E444.938
G1 X107.74 Y110.62 E445.088
G1 X107.72 Y106.1 E445.238
G1 X107.7 Y101.59 E445.388
G1 X109.08 Y98.51 E445.501
G1 X110.46 Y95.44 E445.613
G1 X110.77 Y94.95 E445.632
G1 X111.21 Y94.56 E445.651
G1 X111.75 Y94.31 E445.671
G1 X112.33 Y94.23 E445.691
G1 X116.83 Y94.21 E445.84
G1 X121.33 Y94.2 E445.99
G1 X125.83 Y94.18 E446.14
G1 X130.33 Y94.16 E446.289
G1 X134.82 Y94.15 E446.439
G1 X139.32 Y94.13 E446.588
G1 X142.57 Y96.11 E446.715
G1 X145.81 Y98.09 E446.841
G1 X149.06 Y100.07 E446.968
G1 X152.3 Y102.05 E447.094
G1 X153.47 Y105.43 E447.213
G1 X154.64 Y108.8 E447.332
G1 X155.32 Y111.5 E447.424
G1 X156.01 Y114.19 E447.517
G1 X156.61 Y116.78 E447.605
G1 X157.2 Y119.37 E447.693
G1 X157.61 Y122.18 E447.788
G1 X158.01 Y125 E447.882
G1 X158.32 Y127.72 E447.974
G1 X158.63 Y130.45 E448.065
G1 X158.83 Y134.36 E448.195
G1 Y138.68 E448.339
G1 X158.77 Y140.06 E448.385
G1 X158.73 Y140.16 E448.388
G1 X158.66 Y140.43
G1 X158.54 Y140.6
G1 X158.22 Y140.81
G1 X158.01 Y140.84
G1 X155.82 Y140.85
G1 X157.59 Y139.64 F12000
G1 X157.37 Y139.2
; TYPE:FILL
G1 X152.62 E448.546 F3600
G1 X147.87 E448.704
G1 X143.11 E448.862
G1 X138.36 E449.02
G1 X133.61 E449.178
G1 X128.86 E449.336
G1 X124.11 E449.495
G1 X119.36 E449.653
G1 X119.1 Y138.8 F12000
G1 X123.88 E449.812 F3600
G1 X128.67 E449.971
G1 X133.45 E450.13
G1 X138.24 E450.289
G1 X143.03 E450.449
G1 X147.81 E450.608
G1 X152.6 E450.767
G1 X157.39 E450.926
G1 X157.39 Y138.4 F12000
G1 X152.57 E451.086 F3600
G1 X147.75 E451.247
G1 X142.93 E451.407
G1 X138.11 E451.567
G1 X133.29 E451.728
G1 X128.47 E451.888
G1 X123.65 E452.048
G1 X118.83 E452.209
G1 X118.57 Y138 F12000
G1 X123.42 E452.37 F3600
G1 X128.28 E452.531
G1 X133.13 E452.693
G1 X137.98 E452.854
G1 X142.84 E453.016
G1 X147.69 E453.177
G1 X152.54 E453.338
G1 X157.39 E453.5
G1 X157.39 Y137.6 F12000
G1 X152.51 E453.662 F3600
G1 X147.62 E453.825
G1 X142.74 E453.987
G1 X137.85 E454.15
G1 X132.97 E454.312
G1 X128.08 E454.475
G1 X123.2 E454.637
G1 X118.31 E454.8
G1 X118.05 Y137.2 F12000
G1 X122.97 E454.963 F3600
G1 X127.88 E455.127
G1 X132.8 E455.29
G1 X137.72 E455.454
G1 X142.64 E455.618
G1 X147.56 E455.781
G1 X152.47 E455.945
G1 X157.39 E456.108
G1 X157.39 Y136.8 F12000
G1 X152.44 E456.273 F3600
G1 X147.49 E456.438
G1 X142.54 E456.602
G1 X137.59 E456.767
G1 X132.64 E456.932
G1 X127.69 E457.096
G1 X122.74 E457.261
G1 X117.79 E457.426
G1 X117.52 Y136.4 F12000
G1 X122.51 E457.591 F3600
G1 X127.49 E457.757
G1 X132.47 E457.923
G1 X137.46 E458.089
G1 X142.44 E458.254
G1 X147.43 E458.42
G1 X152.41 E458.586
G1 X157.39 E458.752
G1 X157.39 Y136 F12000
G1 X152.93 E458.9 F3600
G1 X148.48 E459.048
G1 X144.02 E459.197
G1 X139.56 E459.345
G1 X135.1 E459.493
G1 X130.64 E459.641
G1 X126.18 E459.79
G1 X121.72 E459.938
G1 X117.26 E460.086
G1 X117 Y135.6 F12000
G1 X121.49 E460.236 F3600
G1 X125.98 E460.385
G1 X130.47 E460.534
G1 X134.95 E460.683
G1 X139.44 E460.833
G1 X143.93 E460.982
G1 X148.42 E461.131
G1 X152.91 E461.281
G1 X157.39 E461.43
G1 X157.39 Y135.2 F12000
G1 X152.88 E461.58 F3600
G1 X148.36 E461.73
G1 X143.84 E461.881
G1 X139.32 E462.031
G1 X134.81 E462.181
G1 X130.29 E462.331
G1 X125.77 E462.482
G1 X121.26 E462.632
G1 X116.74 E462.782
G1 X116.48 Y134.8 F12000
G1 X121.02 E462.933 F3600
G1 X125.57 E463.084
G1 X130.12 E463.236
G1 X134.66 E463.387
G1 X139.21 E463.538
G1 X143.75 E463.689
G1 X148.3 E463.84
G1 X152.85 E463.992
G1 X157.39 E464.143
G1 X157.39 Y134.4 F12000
G1 X152.82 E464.295 F3600
G1 X148.24 E464.447
G1 X143.67 E464.599
G1 X139.09 E464.752
G1 X134.52 E464.904
G1 X129.94 E465.056
G1 X125.37 E465.208
G1 X120.79 E465.36
G1 X116.22 E465.512
G1 X115.95 Y134 F12000
G1 X120.56 E465.666 F3600
G1 X125.16 E465.819
G1 X129.76 E465.972
G1 X134.36 E466.125
G1 X138.96 E466.278
G1 X143.57 E466.431
G1 X148.17 E466.584
G1 X152.77 E466.737
G1 X157.37 E466.89
G1 X157.35 Y133.6 F12000
G1 X152.72 E467.044 F3600
G1 X148.09 E467.198
G1 X143.47 E467.352
G1 X138.84 E467.506
G1 X134.21 E467.66
G1 X129.58 E467.814
G1 X124.95 E467.968
G1 X120.32 E468.122
G1 X115.69 E468.276
G1 X115.43 Y133.2 F12000
G1 X120.09 E468.431 F3600
G1 X124.74 E468.586
G1 X129.4 E468.74
G1 X134.05 E468.895
G1 X138.71 E469.05
G1 X143.37 E469.205
G1 X148.02 E469.36
G1 X152.68 E469.515
G1 X157.33 E469.67
G1 X157.31 Y132.8 F12000
G1 X152.66 E469.824 F3600
G1 X148 E469.979
G1 X143.35 E470.134
G1 X138.69 E470.289
G1 X134.03 E470.444
G1 X129.38 E470.599
G1 X124.72 E470.753
G1 X120.07 E470.908
G1 X119.37 F12000
G1 X115.17 E471.048 F3600
G1 X114.91 Y132.4 F12000
G1 X118.07 E471.153 F3600
G1 X117.51 Y132 F12000
G1 X114.64 E471.249 F3600
G1 X114.38 Y131.6 F12000
G1 X117.11 E471.339 F3600
G1 X116.82 Y131.2 F12000
G1 X114.12 E471.429 F3600
G1 X113.86 Y130.8 F12000
G1 X116.62 E471.521 F3600
G1 X116.47 Y130.4 F12000
G1 X113.6 E471.616 F3600
G1 X113.33 Y130 F12000
G1 X116.37 E471.717 F3600
G1 X116.33 Y129.6 F12000
G1 X113.07 E471.826 F3600
G1 X112.81 Y129.2 F12000
G1 X116.32 E471.942 F3600
G1 X116.39 Y128.8 F12000
G1 X112.55 E472.07 F3600
G1 X112.29 Y128.4 F12000
G1 X116.48 E472.209 F3600
G1 X116.64 Y128 F12000
G1 X112.03 E472.363 F3600
G1 X111.76 Y127.6 F12000
G1 X116.87 E472.533 F3600
G1 X117.16 Y127.2 F12000
G1 X111.5 E472.721 F3600
G1 X111.24 Y126.8 F12000
G1 X114.4 E472.826 F3600
G1 X117.56 E472.931
G1 X118.18 Y126.4 F12000
G1 X114.58 E473.051 F3600
G1 X110.98 E473.171
G1 X110.72 Y126 F12000
G1 X115.43 E473.327 F3600
G1 X120.14 E473.484
G1 X119.97 Y125.6 F12000
G1 X115.21 Y125.6 E473.642 F3600
G1 X110.45 E473.8
G1 X110.19 Y125.2 F12000
G1 X114.93 E473.958 F3600
G1 X119.67 E474.116
G1 X119.38 Y124.8 F12000
G1 X114.66 Y124.8 E474.273 F3600
G1 X109.93 E474.43
G1 X109.67 Y124.4 F12000
G1 X114.4 E474.587 F3600
G1 X119.13 E474.745
G1 X118.9 Y124 F12000
G1 X114.15 Y124 E474.902 F3600
G1 X109.41 E475.06
G1 X109.23 Y123.6 F12000
G1 X113.95 E475.217 F3600
G1 X118.67 E475.374
G1 X118.47 Y123.2 F12000
G1 X113.85 E475.528 F3600
G1 X109.22 E475.682
G1 X109.22 Y122.8 F12000
G1 X113.76 E475.833 F3600
G1 X118.29 E475.983
G1 X118.12 Y122.4 F12000
G1 X113.67 E476.131 F3600
G1 X109.22 E476.279
G1 X109.22 Y122 F12000
G1 X113.61 E476.425 F3600
G1 X118 E476.572
G1 X117.89 Y121.6 F12000
G1 X113.55 E476.716 F3600
G1 X109.22 E476.86
G1 X109.22 Y121.2 F12000
G1 X113.49 E477.002 F3600
G1 X117.77 E477.144
G1 X117.66 Y120.8 F12000
G1 X113.43 E477.285 F3600
G1 X109.21 E477.425
G1 X109.21 Y120.4 F12000
G1 X113.38 E477.564 F3600
G1 X117.54 E477.702
G1 X117.48 Y120 F12000
G1 X113.34 E477.84 F3600
G1 X109.21 E477.977
G1 Y119.6 F12000
G1 X113.32 E478.114 F3600
G1 X117.44 E478.251
G1 X117.4 Y119.2 F12000
G1 X113.3 E478.387 F3600
G1 X109.21 E478.523
G1 X109.21 Y118.8 F12000
G1 X113.28 E478.659 F3600
G1 X117.36 E478.794
G1 X117.32 Y118.4 F12000
G1 X113.26 E478.929 F3600
G1 X109.21 E479.064
G1 X109.2 Y118 F12000
G1 X113.25 E479.199 F3600
G1 X117.3 E479.334
G1 X117.32 Y117.6 F12000
G1 X113.26 E479.469 F3600
G1 X109.2 E479.604
G1 Y117.2 F12000
G1 X113.28 E479.739 F3600
G1 X117.36 E479.875
G1 X117.4 Y116.8 F12000
G1 X113.3 E480.011 F3600
G1 X109.2 E480.148
G1 X109.2 Y116.4 F12000
G1 X113.31 E480.285 F3600
G1 X117.43 E480.421
G1 X117.47 Y116 F12000
G1 X113.33 E480.559 F3600
G1 X109.2 E480.697
G1 X109.19 Y115.6 F12000
G1 X113.37 E480.835 F3600
G1 X117.54 E480.974
G1 X117.66 Y115.2 F12000
G1 X113.43 E481.115 F3600
G1 X109.19 E481.256
G1 X109.19 Y114.8 F12000
G1 X113.48 E481.399 F3600
G1 X117.78 E481.542
G1 X117.89 Y114.4 F12000
G1 X113.54 E481.686 F3600
G1 X109.19 E481.831
G1 X109.19 Y114 F12000
G1 X113.6 E481.978 F3600
G1 X118.01 E482.124
G1 X118.13 Y113.6 F12000
G1 X113.66 E482.273 F3600
G1 X109.19 E482.422
G1 X109.19 Y113.2 F12000
G1 X113.74 E482.574 F3600
G1 X118.3 E482.725
G1 X118.49 Y112.8 F12000
G1 X113.84 E482.88 F3600
G1 X109.18 E483.035
G1 X109.18 Y112.4 F12000
G1 X113.93 E483.192 F3600
G1 X118.67 E483.35
G1 X118.91 Y112 F12000
G1 X114.04 Y112 E483.512 F3600
G1 X109.18 E483.674
G1 X109.18 Y111.6 F12000
G1 X114.16 E483.84 F3600
G1 X119.14 E484.005
G1 X119.39 Y111.2 F12000
G1 X115.99 Y111.2 E484.119 F3600
G1 X112.58 E484.232
G1 X109.18 E484.345
G1 X109.18 Y110.8 F12000
G1 X112.68 E484.462 F3600
G1 X116.18 E484.578
G1 X119.69 E484.695
G1 X119.98 Y110.4 F12000
G1 X116.38 Y110.4 E484.814 F3600
G1 X112.77 E484.934
G1 X109.17 E485.054
G1 X109.17 Y110 F12000
G1 X112.89 E485.178 F3600
G1 X116.61 E485.301
G1 X120.33 E485.425
G1 X120.69 Y109.6 F12000
G1 X116.85 Y109.6 E485.553 F3600
G1 X113.01 E485.681
G1 X109.17 E485.808
G1 X109.17 Y109.2 F12000
G1 X113.15 E485.941 F3600
G1 X117.12 E486.073
G1 X121.1 E486.205
G1 X121.54 Y108.8 F12000
G1 X117.42 Y108.8 E486.342 F3600
G1 X113.29 E486.48
G1 X109.17 E486.617
G1 X109.17 Y108.4 F12000
G1 X113.45 E486.759 F3600
G1 X117.74 E486.902
G1 X122.03 E487.045
G1 X122.59 Y108 F12000
G1 X118.11 Y108 E487.193 F3600
G1 X113.64 E487.342
G1 X109.16 E487.491
G1 X109.16 Y107.6 F12000
G1 X113.85 E487.647 F3600
G1 X118.53 E487.803
G1 X123.22 E487.959
G1 X123.6 Y107.2 F12000
G1 X118.79 Y107.2 E488.119 F3600
G1 X113.97 E488.279
G1 X109.16 E488.439
G1 X109.16 Y106.8 F12000
G1 X113.67 E488.589 F3600
G1 X118.19 E488.739
G1 X122.71 E488.889
G1 X122.15 Y106.4 F12000
G1 X117.82 Y106.4 E489.033 F3600
G1 X113.49 E489.177
G1 X109.16 E489.322
G1 X109.16 Y106 F12000
G1 X113.36 E489.461 F3600
G1 X117.57 E489.601
G1 X121.78 E489.741
G1 X121.5 Y105.6 F12000
G1 X117.38 Y105.6 E489.878 F3600
G1 X113.27 E490.015
G1 X109.16 E490.152
G1 X109.15 Y105.2 F12000
G1 X113.2 E490.286 F3600
G1 X117.24 E490.421
G1 X121.28 E490.555
G1 X121.16 Y104.8 F12000
G1 X117.15 Y104.8 E490.688 F3600
G1 X113.15 E490.821
G1 X109.15 E490.955
G1 Y104.4 F12000
G1 X113.12 E491.087 F3600
G1 X117.09 E491.219
G1 X121.06 E491.351
G1 X121.02 Y104 F12000
G1 X117.06 Y104 E491.482 F3600
G1 X113.11 E491.614
G1 X109.15 E491.746
G1 X109.15 Y103.6 F12000
G1 X113.11 E491.878 F3600
G1 X117.07 E492.009
G1 X121.04 E492.141
G1 X121.08 Y103.2 F12000
G1 X117.1 Y103.2 E492.274 F3600
G1 X113.12 E492.406
G1 X109.15 E492.538
G1 X109.14 Y102.8 F12000
G1 X113.17 E492.672 F3600
G1 X117.19 E492.806
G1 X121.21 E492.939
G1 X121.36 Y102.4 F12000
G1 X117.29 Y102.4 E493.075 F3600
G1 X113.21 E493.21
G1 X109.14 E493.346
G1 Y102 F12000
G1 X113.29 E493.484 F3600
G1 X117.44 E493.622
G1 X121.59 E493.76
G1 X121.91 Y101.6 F12000
G1 X117.7 Y101.6 E493.9 F3600
G1 X113.48 E494.04
G1 X109.27 E494.18
G1 X109.45 Y101.2 F12000
G1 X113.75 E494.323 F3600
G1 X118.05 E494.466
G1 X122.34 E494.609
G1 X123.01 Y100.8 F12000
G1 X118.55 Y100.8 E494.757 F3600
G1 X114.09 E494.905
G1 X109.63 E495.054
G1 X122.42 Y105.25 F12000
G1 X124.7 Y106.42
G1 X126.58 Y105.92
G1 X127.21 Y106
G1 X127.89 E495.076 F3600
G1 X133.6 Y107.49 F12000
G1 X136.55 Y109.45
G1 X139.44 Y112.71
G1 X141.58 Y118
G1 X142.15 E495.095 F3600
G1 X141.55 Y117.6 F12000
G1 X142.86 E495.139 F3600
G1 E491.139 F2400
G1 X143.7 Y118.17 F12000
G1 X145.44 Y118.44
G1 X146.71 Y120.56
G1 X157.29 Y132.4
G1 E495.139 F2400
G1 X152.8 E495.288 F3600
G1 X148.31 E495.438
G1 X143.81 E495.587
G1 X139.32 E495.737
G1 X134.83 E495.886
G1 X130.33 E496.036
G1 X125.84 E496.185
G1 X121.35 E496.335
G1 X121.92 Y132 F12000
G1 X126.34 E496.482 F3600
G1 X130.76 E496.629
G1 X135.18 E496.776
G1 X139.6 E496.922
G1 X144.01 E497.069
G1 X148.43 E497.216
G1 X152.85 E497.363
G1 X157.27 E497.51
G1 X157.25 Y131.6 F12000
G1 X152.26 E497.676 F3600
G1 X147.27 E497.842
G1 X142.28 E498.008
G1 X137.29 E498.174
G1 X132.3 E498.34
G1 X127.3 E498.506
G1 X122.31 E498.672
G1 X122.59 Y131.2 F12000
G1 X127.54 E498.837 F3600
G1 X132.49 E499.002
G1 X137.44 E499.166
G1 X142.38 E499.331
G1 X147.33 E499.495
G1 X152.28 E499.66
G1 X157.23 E499.825
G1 X157.21 Y130.8 F12000
G1 X152.29 E499.988 F3600
G1 X147.38 E500.152
G1 X142.46 E500.315
G1 X137.55 E500.479
G1 X132.63 E500.642
G1 X127.71 E500.806
G1 X122.8 E500.969
G1 X122.96 Y130.4 F12000
G1 X127.85 E501.132 F3600
G1 X132.74 E501.294
G1 X137.63 E501.457
G1 X142.52 E501.619
G1 X147.4 E501.782
G1 X152.29 E501.944
G1 X157.18 E502.107
G1 X157.13 Y130 F12000
G1 X152.8 E502.251 F3600
G1 X148.47 E502.395
G1 X144.15 E502.539
G1 X139.82 E502.683
G1 X135.49 E502.827
G1 X131.16 E502.971
G1 X127.77 F12000
G1 X123.04 E503.128 F3600
G1 X123.1 Y129.6 F12000
G1 X126.01 E503.225 F3600
G1 X124.75 Y129.2 F12000
G1 X123.09 E503.28 F3600
G1 X123.03 Y128.8 F12000
G1 X123.88 E503.308 F3600
G1 X123.19 Y128.4 F12000
G1 X123.1 E503.311 F3600
G1 X132.87 Y129.6 F12000
G1 X137.71 E503.472 F3600
G1 X142.56 E503.633
G1 X147.4 E503.794
G1 X152.24 E503.956
G1 X157.09 E504.117
G1 X157.04 Y129.2 F12000
G1 X152.46 E504.269 F3600
G1 X147.87 E504.422
G1 X143.28 E504.574
G1 X138.7 E504.727
G1 X134.11 E504.879
G1 X135 Y128.8 F12000
G1 X139.4 E505.026 F3600
G1 X143.8 E505.172
G1 X148.2 E505.318
G1 X152.6 E505.465
G1 X157 E505.611
G1 X156.95 Y128.4 F12000
G1 X152.7 E505.753 F3600
G1 X148.45 E505.894
G1 X144.19 E506.035
G1 X139.94 E506.177
G1 X135.69 E506.318
G1 X136.31 Y128 F12000
G1 X140.43 E506.455 F3600
G1 X144.55 E506.592
G1 X148.67 E506.729
G1 X152.79 E506.866
G1 X156.91 E507.003
G1 X156.86 Y127.6 F12000
G1 X151.86 E507.17 F3600
G1 X146.86 E507.336
G1 X141.86 E507.502
G1 X136.86 E507.669
G1 X137.35 Y127.2 F12000
G1 X142.21 E507.83 F3600
G1 X147.08 E507.992
G1 X151.95 E508.154
G1 X156.81 E508.316
G1 X156.77 Y126.8 F12000
G1 X152.02 E508.474 F3600
G1 X147.28 E508.632
G1 X142.54 E508.789
G1 X137.79 E508.947
G1 X138.19 Y126.4 F12000
G1 X142.83 E509.101 F3600
G1 X147.46 E509.255
G1 X152.09 E509.409
G1 X156.72 E509.564
G1 X156.68 Y126 F12000
G1 X152.15 E509.714 F3600
G1 X147.62 E509.865
G1 X143.09 E510.016
G1 X138.56 E510.166
G1 X138.91 Y125.6 F12000
G1 X143.34 E510.314 F3600
G1 X147.77 E510.461
G1 X152.2 E510.608
G1 X156.63 E510.756
G1 X156.59 Y125.2 F12000
G1 X152.24 E510.9 F3600
G1 X147.89 E511.045
G1 X143.54 E511.19
G1 X139.2 E511.334
G1 X139.49 Y124.8 F12000
G1 X143.75 E511.476 F3600
G1 X148.01 E511.617
G1 X152.27 E511.759
G1 X156.53 E511.901
G1 X156.47 Y124.4 F12000
G1 X152.29 E512.04 F3600
G1 X148.11 E512.179
G1 X143.93 E512.318
G1 X139.75 E512.457
G1 X139.98 Y124 F12000
G1 X143.37 E512.57 F3600
G1 X142.4 Y123.6 F12000
G1 X140.21 E512.642 F3600
G1 X140.39 Y123.2 F12000
G1 X141.88 E512.692 F3600
G1 X141.52 Y122.8 F12000
G1 X140.58 E512.723 F3600
G1 X140.76 Y122.4 F12000
G1 X141.26 E512.74 F3600
G1 X145.04 Y124 F12000
G1 X148.83 E512.866 F3600
G1 X152.62 E512.992
G1 X156.41 E513.118
G1 X156.36 Y123.6 F12000
G1 X152.89 E513.233 F3600
G1 X149.43 E513.349
G1 X145.96 E513.464
G1 X146.49 Y123.2 F12000
G1 X151.39 E513.627 F3600
G1 X156.3 E513.79
G1 X156.24 Y122.8 F12000
G1 X151.55 E513.946 F3600
G1 X146.85 E514.102
G1 X147.13 Y122.4 F12000
G1 X151.65 E514.253 F3600
G1 X156.18 E514.403
G1 X156.13 Y122 F12000
G1 X151.72 E514.55 F3600
G1 X147.32 E514.696
G1 X147.46 Y121.6 F12000
G1 X151.76 E514.84 F3600
G1 X156.07 E514.983
G1 X156.01 Y121.2 F12000
G1 X151.78 E515.123 F3600
G1 X147.55 E515.264
G1 X147.57 Y120.8 F12000
G1 X151.76 E515.404 F3600
G1 X155.95 E515.543
G1 X155.9 Y120.4 F12000
G1 X151.73 E515.682 F3600
G1 X147.57 E515.82
G1 X147.5 Y120 F12000
G1 X151.67 E515.959 F3600
G1 X155.84 E516.098
G1 X155.78 Y119.6 F12000
G1 X151.58 E516.237 F3600
G1 X147.38 E516.377
G1 X147.23 Y119.2 F12000
G1 X151.46 E516.517 F3600
G1 X155.69 E516.658
G1 X155.59 Y118.8 F12000
G1 X151.28 E516.801 F3600
G1 X146.98 E516.945
G1 X146.65 Y118.4 F12000
G1 X151.07 E517.092 F3600
G1 X155.5 E517.239
G1 X155.41 Y118 F12000
G1 X150.8 E517.392 F3600
G1 X146.2 E517.546
G1 X145.49 Y117.6 F12000
G1 X150.41 E517.709 F3600
G1 X155.32 E517.872
G1 X155.22 Y117.2 F12000
G1 X150.65 E518.024 F3600
G1 X146.08 E518.176
G1 X141.51 E518.328
G1 X141.48 Y116.8 F12000
G1 X146.03 E518.48 F3600
G1 X150.58 E518.631
G1 X155.13 E518.783
G1 X155.04 Y116.4 F12000
G1 X150.51 E518.933 F3600
G1 X145.97 E519.084
G1 X141.44 E519.235
G1 X141.41 Y116 F12000
G1 X145.92 E519.385 F3600
G1 X150.43 E519.535
G1 X154.95 E519.685
G1 X154.86 Y115.6 F12000
G1 X150.34 E519.835 F3600
G1 X145.83 E519.985
G1 X141.32 E520.135
G1 X141.21 Y115.2 F12000
G1 X145.73 E520.286 F3600
G1 X150.24 E520.436
G1 X154.76 E520.586
G1 X154.67 Y114.8 F12000
G1 X150.15 E520.737 F3600
G1 X145.62 E520.887
G1 X141.09 E521.038
G1 X140.98 Y114.4 F12000
G1 X145.51 E521.189 F3600
G1 X150.04 E521.339
G1 X154.58 E521.49
G1 X154.47 Y114 F12000
G1 X149.94 E521.641 F3600
G1 X145.4 E521.792
G1 X140.87 E521.943
G1 X140.75 Y113.6 F12000
G1 X145.29 E522.094 F3600
G1 X149.83 E522.245
G1 X154.37 E522.396
G1 X154.27 Y113.2 F12000
G1 X149.7 E522.548 F3600
G1 X145.14 E522.7
G1 X140.57 E522.852
G1 X140.39 Y112.8 F12000
G1 X144.98 E523.004 F3600
G1 X149.58 E523.157
G1 X154.17 E523.31
G1 X154.07 Y112.4 F12000
G1 X149.44 E523.464 F3600
G1 X144.82 E523.617
G1 X140.2 E523.771
G1 X139.97 Y112 F12000
G1 X144.63 E523.926 F3600
G1 X149.3 E524.081
G1 X153.97 E524.237
G1 X153.86 Y111.6 F12000
G1 X149.15 E524.393 F3600
G1 X144.45 E524.55
G1 X139.74 E524.706
G1 X139.48 Y111.2 F12000
G1 X144.24 E524.865 F3600
G1 X149 E525.023
G1 X153.76 E525.181
G1 X153.66 Y110.8 F12000
G1 X148.84 E525.342 F3600
G1 X144.01 E525.502
G1 X139.19 E525.663
G1 X138.89 Y110.4 F12000
G1 X143.78 E525.825 F3600
G1 X148.67 E525.988
G1 X153.56 E526.151
G1 X153.46 Y110 F12000
G1 X148.48 E526.316 F3600
G1 X143.51 E526.481
G1 X138.54 E526.647
G1 X138.18 Y109.6 F12000
G1 X141.98 E526.773 F3600
G1 X145.77 E526.899
G1 X149.56 E527.025
G1 X153.35 E527.151
G1 X153.25 Y109.2 F12000
G1 X149.38 E527.28 F3600
G1 X145.51 E527.409
G1 X141.64 E527.538
G1 X137.77 E527.666
G1 X137.33 Y108.8 F12000
G1 X141.28 E527.798 F3600
G1 X145.22 E527.929
G1 X149.17 E528.06
G1 X153.11 E528.191
G1 X152.97 Y108.4 F12000
G1 X148.94 E528.326 F3600
G1 X144.9 E528.46
G1 X140.87 E528.594
G1 X136.83 E528.728
G1 X136.29 Y108 F12000
G1 X140.43 E528.866 F3600
G1 X144.56 E529.003
G1 X148.7 E529.141
G1 X152.84 E529.278
G1 X152.7 Y107.6 F12000
G1 X148.44 E529.42 F3600
G1 X144.18 E529.562
G1 X139.92 E529.703
G1 X135.66 E529.845
G1 X134.96 Y107.2 F12000
G1 X139.36 E529.991 F3600
G1 X143.76 E530.138
G1 X148.16 E530.284
G1 X152.56 E530.43
G1 X152.42 Y106.8 F12000
G1 X147.84 E530.583 F3600
G1 X143.25 E530.735
G1 X138.67 E530.888
G1 X134.08 E531.04
G1 X132.82 Y106.4 F12000
G1 X137.69 E531.202 F3600
G1 X142.55 E531.364
G1 X147.42 E531.526
G1 X152.28 E531.687
G1 X152.14 Y106 F12000
G1 X147.9 E531.829 F3600
G1 X143.65 E531.97
G1 X139.4 E532.111
G1 X135.15 E532.252
G1 X130.91 E532.394
G1 X127.32 Y105.6 F12000
G1 X132.25 E532.558 F3600
G1 X137.19 E532.722
G1 X142.13 E532.886
G1 X147.07 E533.051
G1 X152 E533.215
G1 X151.87 Y105.2 F12000
G1 X147 E533.377 F3600
G1 X142.13 E533.539
G1 X137.26 E533.701
G1 X132.39 E533.862
G1 X127.53 E534.024
G1 X127.67 Y104.8 F12000
G1 X132.48 E534.184 F3600
G1 X137.29 E534.345
G1 X142.1 E534.505
G1 X146.91 E534.665
G1 X151.73 E534.825
G1 X151.59 Y104.4 F12000
G1 X146.82 E534.983 F3600
G1 X142.05 E535.142
G1 X137.28 E535.3
G1 X132.52 E535.459
G1 X127.75 E535.618
G1 X127.8 Y104 F12000
G1 X132.53 E535.775 F3600
G1 X137.26 E535.932
G1 X141.99 E536.09
G1 X146.72 E536.247
G1 X151.45 E536.404
G1 X151.31 Y103.6 F12000
G1 X146.61 E536.561 F3600
G1 X141.9 E536.717
G1 X137.19 E536.874
G1 X132.48 E537.03
G1 X127.78 E537.187
G1 X127.73 Y103.2 F12000
G1 X132.41 E537.343 F3600
G1 X137.1 E537.499
G1 X141.79 E537.655
G1 X146.48 E537.811
G1 X151.17 E537.967
G1 X150.76 Y102.8 F12000
G1 X146.13 E538.121 F3600
G1 X141.51 E538.275
G1 X136.88 E538.429
G1 X132.25 E538.583
G1 X127.62 E538.737
G1 X127.45 Y102.4 F12000
G1 X131.98 E538.887 F3600
G1 X136.51 E539.038
G1 X141.04 E539.189
G1 X145.57 E539.339
G1 X150.11 E539.49
G1 X149.45 Y102 F12000
G1 X145.01 E539.638 F3600
G1 X140.56 E539.786
G1 X136.12 E539.934
G1 X131.67 E540.081
G1 X127.23 E540.229
G1 X126.93 Y101.6 F12000
G1 X131.3 E540.375 F3600
G1 X135.67 E540.52
G1 X140.05 E540.666
G1 X144.42 E540.811
G1 X148.79 E540.957
G1 X148.14 Y101.2 F12000
G1 X143.81 E541.101 F3600
G1 X139.48 E541.245
G1 X135.15 E541.389
G1 X130.82 E541.533
G1 X126.49 E541.677
G1 X125.83 Y100.8 F12000
G1 X130.16 E541.821 F3600
G1 X134.49 E541.965
G1 X138.82 E542.109
G1 X143.15 E542.253
G1 X147.48 E542.397
G1 X146.83 Y100.4 F12000
G1 X142.2 Y100.4 E542.551 F3600
G1 X137.57 E542.705
G1 X132.95 E542.858
G1 X128.32 E543.012
G1 X123.69 E543.166
G1 X119.07 E543.32
G1 X114.44 E543.474
G1 X109.81 E543.628
G1 X109.99 Y100 F12000
G1 X114.51 E543.778 F3600
G1 X119.04 E543.929
G1 X123.56 E544.079
G1 X128.08 E544.23
G1 X132.6 E544.38
G1 X137.13 E544.531
G1 X141.65 E544.681
G1 X146.17 E544.831
G1 X145.52 Y99.6 F12000
G1 X141.1 Y99.6 E544.978 F3600
G1 X136.68 E545.125
G1 X132.26 E545.272
G1 X127.84 E545.419
G1 X123.43 E545.566
G1 X119.01 E545.713
G1 X114.59 E545.86
G1 X110.17 E546.007
G1 X110.35 Y99.2 F12000
G1 X115.28 E546.171 F3600
G1 X120.21 E546.335
G1 X125.14 E546.499
G1 X130.07 E546.663
G1 X135 E546.827
G1 X139.93 E546.991
G1 X144.86 E547.155
G1 X144.21 Y98.8 F12000
G1 X139.4 Y98.8 E547.315 F3600
G1 X134.58 E547.475
G1 X129.77 E547.635
G1 X124.96 E547.795
G1 X120.15 E547.955
G1 X115.34 E548.115
G1 X110.53 E548.275
G1 X110.71 Y98.4 F12000
G1 X115.4 E548.431 F3600
G1 X120.09 E548.587
G1 X124.78 E548.743
G1 X129.48 E548.899
G1 X134.17 E549.055
G1 X138.86 E549.211
G1 X143.55 E549.367
G1 X142.9 Y98 F12000
G1 X138.32 Y98 E549.519 F3600
G1 X133.75 E549.671
G1 X129.18 E549.823
G1 X124.61 E549.975
G1 X120.03 E550.127
G1 X115.46 E550.279
G1 X110.89 E550.432
G1 X111.07 Y97.6 F12000
G1 X115.52 E550.58 F3600
G1 X119.98 E550.728
G1 X124.43 E550.876
G1 X128.88 E551.024
G1 X133.33 E551.172
G1 X137.79 E551.32
G1 X142.24 E551.468
G1 X141.58 Y97.2 F12000
G1 X137.25 Y97.2 E551.612 F3600
G1 X132.92 E551.757
G1 X128.58 E551.901
G1 X124.25 E552.045
G1 X119.92 E552.189
G1 X115.58 E552.333
G1 X111.25 E552.477
G1 X111.43 Y96.8 F12000
G1 X116.35 E552.641 F3600
G1 X121.26 E552.804
G1 X126.18 E552.968
G1 X131.1 E553.131
G1 X136.01 E553.295
G1 X140.93 E553.458
G1 X140.27 Y96.4 F12000
G1 X135.5 Y96.4 E553.617 F3600
G1 X130.72 E553.776
G1 X125.94 E553.935
G1 X121.16 E554.094
G1 X116.39 E554.253
G1 X111.61 E554.412
G1 X111.81 Y96 F12000
G1 X116.44 E554.566 F3600
G1 X121.08 E554.72
G1 X125.71 E554.874
G1 X130.35 E555.028
G1 X134.98 E555.182
G1 X139.62 E555.337
